!!!COM: Bach, Johann Sebastian
!!!OPR: Six Concerts Avec plusieurs ... le prince regnant d'Anhalt-Coethen
!!!OTL: Brandenburgische Konzerte G
!!!XEN: Brandenburg Concerto No. 4 in G major.
!!!OMV: Movement 3.
!!!SCT: BWV 1049
!!!YEC: Copyright 1994, Center for Computer Assisted Research in the Humanities
!!!YEM: Rights to all derivative electronic formats reserved.
!!!YEM: Refer to licensing agreement for further details.
!! For the following instrumentation: Violino principale, Flauto Dolce
!!    (sopranino) I & II, Violino di ripieno I & II, Viola di ripieno,
!!    Violoncello, Violone, Continuo.
!! Presto.
**kern	**kern	**kern	**kern	**kern	**kern	**kern	**kern	**kern
*IGripn	*IGripn	*IGripn	*IGripn	*IGripn	*IGripn	*IGconc	*IGconc	*IGconc
*ICklav	*ICstr	*ICstr	*ICstr	*ICstr	*ICstr	*ICww	*ICww	*ICstr
*Icemba	*Icbass	*Icello	*Iviola	*Ivioln	*Ivioln	*Ifltdn	*Ifltdn	*Ivioln
!contin	!v'lone	!'cello	!vd'rip	!v'lin2	!v'lin1	!flaut2	!flaut1	!v'lin
*k[f#]	*k[f#]	*k[f#]	*k[f#]	*k[f#]	*k[f#]	*k[f#]	*k[f#]	*k[f#]
*G:	*G:	*G:	*G:	*G:	*G:	*G:	*G:	*G:
*M2/2	*M2/2	*M2/2	*M2/2	*M2/2	*M2/2	*M2/2	*M2/2	*M2/2
*MM144	*MM144	*MM144	*MM144	*MM144	*MM144	*MM144	*MM144	*MM144
*clefF4	*clefF4	*clefF4	*clefC3	*clefG2	*clefG2	*clefG2	*clefG2	*clefG2
=1	=1	=1	=1	=1	=1	=1	=1	=1
4r	1r	4r	2d\	1r	1r	1r	1r	1r
8G\L	.	8G\L	.	.	.	.	.	.
8A\J	.	8A\J	.	.	.	.	.	.
8B\L	.	8B\L	[2g\	.	.	.	.	.
8A\	.	8A\	.	.	.	.	.	.
8B\	.	8B\	.	.	.	.	.	.
8G\J	.	8G\J	.	.	.	.	.	.
=2	=2	=2	=2	=2	=2	=2	=2	=2
8A\L	1r	8A\L	4g\]	1r	1r	1r	1r	1r
8G\	.	8G\	.	.	.	.	.	.
8A\	.	8A\	8f#\L	.	.	.	.	.
8B\J	.	8B\J	8g\J	.	.	.	.	.
8c\L	.	8c\L	4a\	.	.	.	.	.
8B\	.	8B\	.	.	.	.	.	.
8c\	.	8c\	8g\L	.	.	.	.	.
8A\J	.	8A\J	8f#\J	.	.	.	.	.
=3	=3	=3	=3	=3	=3	=3	=3	=3
2B\	1r	2B\	4g\	1r	1r	1r	1r	1r
.	.	.	4d\	.	.	.	.	.
4G\	.	4G\	4e\	.	.	.	.	.
4E\	.	4E\	4B/	.	.	.	.	.
=4	=4	=4	=4	=4	=4	=4	=4	=4
2A\	1r	2A\	4c\	1r	1r	1r	1r	1r
.	.	.	4A/	.	.	.	.	.
4F#\	.	4F#\	4d\	.	.	.	.	.
4D\	.	4D\	4A/	.	.	.	.	.
=5	=5	=5	=5	=5	=5	=5	=5	=5
4G\	1r	4G\	4B/	2g/	1r	1r	1r	1r
8B\L	.	8B\L	8G/L	.	.	.	.	.
8A\J	.	8A\J	8A/J	.	.	.	.	.
4G\	.	4G\	4B/	[2dd\	.	.	.	.
4F#\	.	4F#\	8c#\L	.	.	.	.	.
.	.	.	8d\J	.	.	.	.	.
=6	=6	=6	=6	=6	=6	=6	=6	=6
2E\	1r	2E\	4e\	4dd\]	1r	1r	1r	1r
.	.	.	4f#\	8cc#\L	.	.	.	.
.	.	.	.	8dd\J	.	.	.	.
2A\	.	2A\	4g\	4ee\	.	.	.	.
.	.	.	4a\	8dd\L	.	.	.	.
.	.	.	.	8cc#\J	.	.	.	.
=7	=7	=7	=7	=7	=7	=7	=7	=7
2D\	1r	2D\	4b\	4dd\	1r	1r	1r	1r
.	.	.	4cc#\	4a/	.	.	.	.
2r	.	2r	[2dd\	4b/	.	.	.	.
.	.	.	.	4f#/	.	.	.	.
=8	=8	=8	=8	=8	=8	=8	=8	=8
1r	1r	1r	2dd\]	4g/	1r	1r	1r	1r
.	.	.	.	4e/	.	.	.	.
.	.	.	2cc#\	4a/	.	.	.	.
.	.	.	.	4e/	.	.	.	.
=9	=9	=9	=9	=9	=9	=9	=9	=9
1r	1r	1r	2dd\	4f#/	1r	1r	1r	1r
.	.	.	.	8d/L	.	.	.	.
.	.	.	.	8e/J	.	.	.	.
.	.	.	[2d\	4f#/	.	.	.	.
.	.	.	.	8e/L	.	.	.	.
.	.	.	.	8d/J	.	.	.	.
=10	=10	=10	=10	=10	=10	=10	=10	=10
1r	1r	1r	2d\]	4e/	1r	1r	1r	1r
.	.	.	.	8f#/L	.	.	.	.
.	.	.	.	8g/J	.	.	.	.
.	.	.	[2c\	4a/	.	.	.	.
.	.	.	.	8b\L	.	.	.	.
.	.	.	.	8cc\J	.	.	.	.
=11	=11	=11	=11	=11	=11	=11	=11	=11
1r	1r	1r	2c\]	4f#/	2dd\	1r	1r	2dd\
.	.	.	.	8g/L	.	.	.	.
.	.	.	.	8a/J	.	.	.	.
.	.	.	2B/	4b/	[2gg\	.	.	[2gg\
.	.	.	.	8a/L	.	.	.	.
.	.	.	.	8g/J	.	.	.	.
=12	=12	=12	=12	=12	=12	=12	=12	=12
1r	1r	1r	2A/	4cc\	4gg\]	1r	1r	4gg\]
.	.	.	.	8a/L	8ff#\L	.	.	8ff#\L
.	.	.	.	8b/J	8gg\J	.	.	8gg\J
.	.	.	2d\	4cc\	4aa\	.	.	4aa\
.	.	.	.	8b/L	8gg\L	.	.	8gg\L
.	.	.	.	8a/J	8ff#\J	.	.	8ff#\J
=13	=13	=13	=13	=13	=13	=13	=13	=13
1r	1r	1r	4G/	2b\	4gg\	1r	1r	4gg\
.	.	.	8A/L	.	4dd\	.	.	4dd\
.	.	.	8B/J	.	.	.	.	.
.	.	.	4c\	[2g/	4ee\	.	.	4ee\
.	.	.	8d\L	.	4b\	.	.	4b\
.	.	.	8e\J	.	.	.	.	.
=14	=14	=14	=14	=14	=14	=14	=14	=14
1r	1r	1r	4A/	2g/]	4cc\	1r	1r	4cc\
.	.	.	8B/L	.	4a/	.	.	4a/
.	.	.	8c/J	.	.	.	.	.
.	.	.	4d\	4f#/	4dd\	.	.	4dd\
.	.	.	8e\L	[4a/	4a/	.	.	4a/
.	.	.	8f#\J	.	.	.	.	.
=15	=15	=15	=15	=15	=15	=15	=15	=15
2G\	2GG\	2G\	4g\	4a/]	4b\	1r	1r	4b\
.	.	.	2d\	8b/L	8g/L	.	.	8g/L
.	.	.	.	8a/J	8a/J	.	.	8a/J
[2d\	[2D\	[2d\	.	4g/	4b\	.	.	4b\
.	.	.	8e\L	4f#/	8cc#\L	.	.	8cc#\L
.	.	.	8f#\J	.	8dd\J	.	.	8dd\J
=16	=16	=16	=16	=16	=16	=16	=16	=16
4d\]	4D\]	4d\]	4g\	2e/	4ee\	1r	1r	4ee\
8c#\L	8C#\L	8c#\L	8a\L	.	4ff#\	.	.	4ff#\
8d\J	8D\J	8d\J	8b\J	.	.	.	.	.
4e\	4E\	4e\	4c#\	[2ee\	4gg\	.	.	4gg\
8d\L	8D\L	8d\L	4e\	.	4aa\	.	.	4aa\
8c#\J	8C#\J	8c#\J	.	.	.	.	.	.
=17	=17	=17	=17	=17	=17	=17	=17	=17
4d\	4D\	4d\	2A/	4ee\]	4ff#\	1r	1r	4ff#\
4A\	4AA\	4A\	.	8dd\L	4aa\	.	.	4aa\
.	.	.	.	8cc#\J	.	.	.	.
4B\	4BB\	4B\	2f#\	4dd\	[2dd\	.	.	[2dd\
4F#\	4FF#\	4F#\	.	4a/	.	.	.	.
=18	=18	=18	=18	=18	=18	=18	=18	=18
4G\	4GG\	4G\	1e\	4b\	2dd\]	1r	1r	2dd\]
4E\	4EE\	4E\	.	4g/	.	.	.	.
4A\	4AA\	4A\	.	4e/	2cc#\	.	.	2cc#\
4E\	4EE\	4E\	.	4g/	.	.	.	.
=19	=19	=19	=19	=19	=19	=19	=19	=19
4F#\	4FF#\	4F#\	4d\	4a/	4dd\	1r	1r	4dd\
8D\L	8DD\L	8D\L	8a\L	8f#/L	4a/	.	.	4a/
8E\J	8EE\J	8E\J	8g\J	8g/J	.	.	.	.
4F#\	4FF#\	4F#\	4f#\	4a/	[2dd\	.	.	[2dd\
4G#\	4GG#\	4G#\	4e\	[4b/	.	.	.	.
=20	=20	=20	=20	=20	=20	=20	=20	=20
4A\	4AA\	4A\	2.e\	4b/]	4dd\]	1r	1r	4dd\]
4E\	4EE\	4E\	.	8a/L	8cc\L	.	.	8cc\L
.	.	.	.	8g#/J	8b\J	.	.	8b\J
[2A\	[2AA\	[2A\	.	4a/	4cc\	.	.	4cc\
.	.	.	8d\L	4b/	4dd\	.	.	4dd\
.	.	.	8c\J	.	.	.	.	.
=21	=21	=21	=21	=21	=21	=21	=21	=21
4A\]	4AA\]	4A\]	4B/	8e/L	4ee\	1r	1r	4ee\
.	.	.	.	8f#/	.	.	.	.
8G\L	8GG\L	8G\L	8b\L	8g/	4b\	.	.	4b\
8F#\J	8FF#\J	8F#\J	8a\J	8a/J	.	.	.	.
4G\	4GG\	4G\	4g\	4b\	[2ee\	.	.	[2ee\
4A\	4AA\	4A\	4f#\	4cc\	.	.	.	.
=22	=22	=22	=22	=22	=22	=22	=22	=22
4B\	4BB\	4B\	2.b\	2.f#/	4ee\]	1r	1r	4ee\]
4F#\	4FF#\	4F#\	.	.	8dd\L	.	.	8dd\L
.	.	.	.	.	8cc\J	.	.	8cc\J
[2B\	[2BB\	[2B\	.	.	4dd\	.	.	4dd\
.	.	.	4cc\	8g/L	8ee\L	.	.	8ee\L
.	.	.	.	8a/J	8ff#\J	.	.	8ff#\J
=23	=23	=23	=23	=23	=23	=23	=23	=23
4B\]	4BB\]	4B\]	4dd\	2b\	2gg\	2gg\	2gg\	2gg\
8GG/L	8GGG/L	8GG/L	8B/L	.	.	.	.	.
8AA/J	8AAA/J	8AA/J	8c#/J	.	.	.	.	.
4BB/	4BBB/	4BB/	4d\	[2b\	2ff#\	[2ddd\	[2ddd\	2ff#\
8C#/L	8CC#/L	8C#/L	8e\L	.	.	.	.	.
8D/J	8DD/J	8D/J	8f#\J	.	.	.	.	.
=24	=24	=24	=24	=24	=24	=24	=24	=24
4E\	4EE\	4E\	2g\	2b\]	1ee\	4ddd\]	4ddd\]	1ee\
4F#\	4FF#\	4F#\	.	.	.	8ccc#\L	8ccc#\L	.
.	.	.	.	.	.	8ddd\J	8ddd\J	.
4G\	4GG\	4G\	2c#\	[2a/	.	4eee\	4eee\	.
4A\	4AA\	4A\	.	.	.	8ddd\L	8ddd\L	.
.	.	.	.	.	.	8ccc#\J	8ccc#\J	.
=25	=25	=25	=25	=25	=25	=25	=25	=25
4B\	4BB\	4B\	4B/	4a/]	2dd\	4ddd\	4ddd\	2dd\
4c#\	4C#\	4c#\	4e\	4g/	.	4aa\	4aa\	.
[2d\	[2D\	[2d\	4d\	4f#/	8r	4bb\	4bb\	8r
.	.	.	.	.	8dd\L	.	.	8dd\L
.	.	.	4f#\	[4b/	8cc#\	4ff#\	4ff#\	8cc#\
.	.	.	.	.	8dd\J	.	.	8dd\J
=26	=26	=26	=26	=26	=26	=26	=26	=26
2d\]	2D\]	2d\]	4e\	4b/]	8ee\L	4gg\	4gg\	8ee\L
.	.	.	.	.	8dd\	.	.	8dd\
.	.	.	4b\	4g/	8ee\	4ee\	4ee\	8ee\
.	.	.	.	.	8ff#\J	.	.	8ff#\J
2c#\	2C#\	2c#\	2a\	4e/	8ee\L	4aa\	4aa\	8ee\L
.	.	.	.	.	8ff#\	.	.	8ff#\
.	.	.	.	[4a/	8gg\	4ee\	4ee\	8gg\
.	.	.	.	.	8aa\J	.	.	8aa\J
=27	=27	=27	=27	=27	=27	=27	=27	=27
4d\	4D\	4d\	2d\	4a/]	4ff#\	4ff#\	4ff#\	4ff#\
4c#\	4C#\	4c#\	.	4f#/	4aa\	4dd\	4dd\	4aa\
4B\	4BB\	4B\	2f#\	4d/	[2ddd\	8r	8r	[2ddd\
.	.	.	.	.	.	8dd\L	8dd\L	.
4A\	4AA\	4A\	.	4f#/	.	8cc#\	8cc#\	.
.	.	.	.	.	.	8dd\J	8dd\J	.
=28	=28	=28	=28	=28	=28	=28	=28	=28
4G\	4GG\	4G\	2g\	4b\	2ddd\]	8ee\L	8ee\L	2ddd\]
.	.	.	.	.	.	8dd\	8dd\	.
4E\	4EE\	4E\	.	[4ee\	.	8ee\	8ee\	.
.	.	.	.	.	.	8ff#\J	8ff#\J	.
4A\	4AA\	4A\	[2a\	8ee\L]	[2ccc\	8ee\L	8ee\L	[2ccc\
.	.	.	.	8dd\	.	8ff#\	8ff#\	.
4AA/	4AAA/	4AA/	.	8ee\	.	8gg\	8gg\	.
.	.	.	.	8ff#\J	.	8aa\J	8aa\J	.
=29	=29	=29	=29	=29	=29	=29	=29	=29
4D\	4DD\	4D\	2a\]	2dd\	2ccc\]	8ff#\L	8ff#\L	2ccc\]
.	.	.	.	.	.	8gg\	8gg\	.
8C/L	8CC/L	8C/L	.	.	.	8ee\	8ee\	.
8D/J	8DD/J	8D/J	.	.	.	8ff#\J	8ff#\J	.
4E\	4EE\	4E\	[2g\	8r	2bb\	8gg\L	8gg\L	2bb\
.	.	.	.	8g/L	.	8aa\	8aa\	.
4D\	4DD\	4D\	.	8a/	.	8ff#\	8ff#\	.
.	.	.	.	8b/J	.	8gg\J	8gg\J	.
=30	=30	=30	=30	=30	=30	=30	=30	=30
4C/	4CC/	4C/	4g\]	8cc\L	1aa\	8aa\L	8aa\L	1aa\
.	.	.	.	8b\	.	8gg\	8gg\	.
4AA/	4AAA/	4AA/	8f\L	8cc\	.	8aa\	8aa\	.
.	.	.	8e\J	8dd\J	.	8bb\J	8bb\J	.
4D\	4DD\	4D\	[2f\	4cc\	.	8aa\L	8aa\L	.
.	.	.	.	.	.	8bb\	8bb\	.
4DD/	4DDD/	4DD/	.	4a/	.	8ccc\	8ccc\	.
.	.	.	.	.	.	8ddd\J	8ddd\J	.
=31	=31	=31	=31	=31	=31	=31	=31	=31
4GG/	4GGG/	4GG/	4f\]	4b\	8gg\L	8bb\L	8bb\L	8gg\L
.	.	.	.	.	8aa\	8ccc\	8ccc\	8aa\
4G\	4GG\	4G\	4B/	4dd\	8ff\	8aa\	8aa\	8ff\
.	.	.	.	.	8gg\J	8bb\J	8bb\J	8gg\J
4A\	4AA\	4A\	4e\	4cc\	8ee\L	[2ccc\	[2ccc\	8ee\L
.	.	.	.	.	8ff#\	.	.	8ff#\
4G\	4GG\	4G\	4c\	4ee\	8gg\	.	.	8gg\
.	.	.	.	.	8aa\J	.	.	8aa\J
=32	=32	=32	=32	=32	=32	=32	=32	=32
4F#\	4FF#\	4F#\	4d\	4a/	8dd\L	2ccc\]	2ccc\]	8dd\L
.	.	.	.	.	8cc\	.	.	8cc\
4D\	4DD\	4D\	4f#\	2aa\	8dd\	.	.	8dd\
.	.	.	.	.	8ee\J	.	.	8ee\J
4G\	4GG\	4G\	[2g\	.	8dd\L	[2bb\	[2bb\	8dd\L
.	.	.	.	.	8ee\	.	.	8ee\
4F#\	4FF#\	4F#\	.	4dd\	8ff#\	.	.	8ff#\
.	.	.	.	.	8gg\J	.	.	8gg\J
=33	=33	=33	=33	=33	=33	=33	=33	=33
4E\	4EE\	4E\	4g\]	4gg\	8cc\L	2bb\]	2bb\]	8cc\L
.	.	.	.	.	8b\	.	.	8b\
4A\	4AA\	4A\	8a\L	4ee\	8cc\	.	.	8cc\
.	.	.	8b\J	.	8dd\J	.	.	8dd\J
4F#\	4FF#\	4F#\	4cc\	4aa\	8cc\L	[2aa\	[2aa\	8cc\L
.	.	.	.	.	8ee\	.	.	8ee\
4D\	4DD\	4D\	8b\L	4ff#\	8dd\	.	.	8dd\
.	.	.	8a\J	.	8cc\J	.	.	8cc\J
=34	=34	=34	=34	=34	=34	=34	=34	=34
4G\	4GG\	4G\	4b\	4dd\	8b\L	2aa\]	2aa\]	8b\L
.	.	.	.	.	8a\	.	.	8a\
4D\	4DD\	4D\	4dd\	4ff#\	8b\	.	.	8b\
.	.	.	.	.	8cc\J	.	.	8cc\J
4E\	4EE\	4E\	4g\	4gg\	8b\L	[2gg\	[2gg\	8b\L
.	.	.	.	.	8cc\	.	.	8cc\
4BB/	4BBB/	4BB/	4b\	4dd\	8dd\	.	.	8dd\
.	.	.	.	.	8ee\J	.	.	8ee\J
=35	=35	=35	=35	=35	=35	=35	=35	=35
4C/	4CC/	4C/	2e\	8ee\L	[1a/	4gg\]	4gg\]	[1a/
.	.	.	.	8dd\	.	.	.	.
4AA/	4AAA/	4AA/	.	8cc\	.	8aa\L	8aa\L	.
.	.	.	.	8b\J	.	8gg\J	8gg\J	.
4D\	4DD\	4D\	[2f#\	8a\L	.	8ff#\L	8ff#\L	.
.	.	.	.	8b\	.	8gg\	8gg\	.
4AA/	4AAA/	4AA/	.	8cc\	.	8ee\	8ee\	.
.	.	.	.	8dd\J	.	8ff#\J	8ff#\J	.
=36	=36	=36	=36	=36	=36	=36	=36	=36
2BB/	2BBB/	2BB/	4f#\]	1b\	4a/]	2dd\	2dd\	4a/]
.	.	.	8b\L	.	8g/L	.	.	8g/L
.	.	.	8a\J	.	8f#/J	.	.	8f#/J
2E\	2EE\	2E\	4g\	.	4g/	[2gg\	[2gg\	4g/
.	.	.	8f#\L	.	8a/L	.	.	8a/L
.	.	.	8g\J	.	8b/J	.	.	8b/J
=37	=37	=37	=37	=37	=37	=37	=37	=37
2AA/	2AAA/	2AA/	4e\	1a/	4cc\	4gg\]	4gg\]	4cc\
.	.	.	8a\L	.	8a/L	8ff#\L	8ff#\L	8a/L
.	.	.	8g\J	.	8b/J	8gg\J	8gg\J	8b/J
2D\	2DD\	2D\	8f#\L	.	4cc\	4aa\	4aa\	4cc\
.	.	.	8e\J	.	.	.	.	.
.	.	.	[4d\	.	8b/L	8gg\L	8gg\L	8b/L
.	.	.	.	.	8a/J	8ff#\J	8ff#\J	8a/J
=38	=38	=38	=38	=38	=38	=38	=38	=38
2GG/	2GGG/	2GG/	8d\L]	8g/L	2b\	4gg\	4gg\	2b\
.	.	.	8d\	8f#/	.	.	.	.
.	.	.	8e\	8g/	.	4dd\	4dd\	.
.	.	.	8f#\J	8a/J	.	.	.	.
[2G\	[2GG\	[2G\	8g\L	8b\L	4r	4ee\	4ee\	4r
.	.	.	8a\	8cc\	.	.	.	.
.	.	.	8b\	8dd\	4dd\	4b\	4b\	4dd\
.	.	.	8cc\J	8ee\J	.	.	.	.
=39	=39	=39	=39	=39	=39	=39	=39	=39
2G\]	2GG\]	2G\]	[2a\	8cc\L	4ee\	4cc\	4cc\	4ee\
.	.	.	.	8dd\	.	.	.	.
.	.	.	.	8cc\	8ff#\L	4a/	4a/	8ff#\L
.	.	.	.	8b\J	8gg\J	.	.	8gg\J
2F#\	2FF#\	2F#\	8a\L]	8a\L	[2aa\	4dd\	4dd\	[2aa\
.	.	.	8g\	8b\	.	.	.	.
.	.	.	8f#\	8cc\	.	4a/	4a/	.
.	.	.	8e\J	8dd\J	.	.	.	.
=40	=40	=40	=40	=40	=40	=40	=40	=40
4G\	4GG\	4G\	4d\	8b\L	4aa\]	8b\L	8b\L	4aa\]
.	.	.	.	8a\	.	8cc\	8cc\	.
4C/	4CC/	4C/	4g\	8b\	2gg\	8dd\	8dd\	2gg\
.	.	.	.	8cc\J	.	8ee\J	8ee\J	.
4D\	4DD\	4D\	4dd\	4a/	.	4.aT/	4.aT/	.
4DD/	4DDD/	4DD/	4a\	4dd\	4ff#\	.	.	4ff#\
.	.	.	.	.	.	8g/	8g/	.
=41	=41	=41	=41	=41	=41	=41	=41	=41
2GG/	2GGG/	2GG/	2b\	2dd\	2gg\	2g/	2g/	8gg\L
.	.	.	.	.	.	.	.	8dd\
.	.	.	.	.	.	.	.	8b\
.	.	.	.	.	.	.	.	8gg\J
2r	2r	2r	2r	2r	2r	2r	2r	8dd\L
.	.	.	.	.	.	.	.	8b\
.	.	.	.	.	.	.	.	8g\
.	.	.	.	.	.	.	.	8dd\J
=42	=42	=42	=42	=42	=42	=42	=42	=42
1r	1r	1r	1r	1r	1r	1r	1r	8b/L
.	.	.	.	.	.	.	.	8g/
.	.	.	.	.	.	.	.	8d/
.	.	.	.	.	.	.	.	8b/J
.	.	.	.	.	.	.	.	8g/L
.	.	.	.	.	.	.	.	8d/
.	.	.	.	.	.	.	.	8B/
.	.	.	.	.	.	.	.	8d/J
=43	=43	=43	=43	=43	=43	=43	=43	=43
1r	1r	1r	1r	1r	1r	1r	2dd\	8G/L
.	.	.	.	.	.	.	.	8B/
.	.	.	.	.	.	.	.	8c/
.	.	.	.	.	.	.	.	8d/J
.	.	.	.	.	.	.	[2gg\	8e/L
.	.	.	.	.	.	.	.	8f#/
.	.	.	.	.	.	.	.	8g/
.	.	.	.	.	.	.	.	8B/J
=44	=44	=44	=44	=44	=44	=44	=44	=44
1r	1r	1r	1r	1r	1r	1r	4gg\]	8A/L
.	.	.	.	.	.	.	.	8c/
.	.	.	.	.	.	.	8ff#\L	8d/
.	.	.	.	.	.	.	8gg\J	8e/J
.	.	.	.	.	.	.	4aa\	8f#/L
.	.	.	.	.	.	.	.	8g/
.	.	.	.	.	.	.	8gg\L	8a/
.	.	.	.	.	.	.	8ff#\J	8c/J
=45	=45	=45	=45	=45	=45	=45	=45	=45
1r	1r	1r	1r	1r	1r	2dd\	4gg\	8B/L
.	.	.	.	.	.	.	.	8d/
.	.	.	.	.	.	.	4dd\	8e/
.	.	.	.	.	.	.	.	8f#/J
.	.	.	.	.	.	[2gg\	4ee\	8g/L
.	.	.	.	.	.	.	.	8a/
.	.	.	.	.	.	.	4b\	8b/
.	.	.	.	.	.	.	.	8f/J
=46	=46	=46	=46	=46	=46	=46	=46	=46
1r	1r	1r	1r	1r	1r	4gg\]	4cc\	8e/L
.	.	.	.	.	.	.	.	8g/
.	.	.	.	.	.	8ff#\L	4a/	8a/
.	.	.	.	.	.	8gg\J	.	8b/J
.	.	.	.	.	.	4aa\	4dd\	8cc\L
.	.	.	.	.	.	.	.	8ee\
.	.	.	.	.	.	8gg\L	4a/	8dd\
.	.	.	.	.	.	8ff#\J	.	8cc\J
=47	=47	=47	=47	=47	=47	=47	=47	=47
1r	1r	1r	1r	1r	1r	8gg\L	2b\	8b\L
.	.	.	.	.	.	8ff#\	.	8dd\
.	.	.	.	.	.	8gg\	.	8ee\
.	.	.	.	.	.	8aa\J	.	8ff#\J
.	.	.	.	.	.	8bb\L	[2bb\	8gg\L
.	.	.	.	.	.	8aa\	.	8aa\
.	.	.	.	.	.	8gg\	.	8bb\
.	.	.	.	.	.	8ff#\J	.	8dd\J
=48	=48	=48	=48	=48	=48	=48	=48	=48
1r	1r	1r	1r	1r	1r	4ee\	1bb\]	8cc#\L
.	.	.	.	.	.	.	.	8bb\
.	.	.	.	.	.	4gg\	.	8gg\
.	.	.	.	.	.	.	.	8ee\J
.	.	.	.	.	.	4ee\	.	8cc#\L
.	.	.	.	.	.	.	.	8gg\
.	.	.	.	.	.	4cc#\	.	8ee\
.	.	.	.	.	.	.	.	8cc#\J
=49	=49	=49	=49	=49	=49	=49	=49	=49
1r	1r	1r	1r	1r	1r	8r	[1aa\	8f#\L
.	.	.	.	.	.	8ee\L	.	8cc#\
.	.	.	.	.	.	8ff#\	.	8dd\
.	.	.	.	.	.	8gg\J	.	8ee\J
.	.	.	.	.	.	8aa\L	.	8ff#\L
.	.	.	.	.	.	8gg\	.	8gg\
.	.	.	.	.	.	8ff#\	.	8aa\
.	.	.	.	.	.	8ee\J	.	8cc#\J
=50	=50	=50	=50	=50	=50	=50	=50	=50
1r	1r	1r	1r	1r	1r	4dd\	1aa\]	8b\L
.	.	.	.	.	.	.	.	8aa\
.	.	.	.	.	.	4ff#\	.	8ff#\
.	.	.	.	.	.	.	.	8dd\J
.	.	.	.	.	.	4dd\	.	8b\L
.	.	.	.	.	.	.	.	8ff#\
.	.	.	.	.	.	4b\	.	8dd\
.	.	.	.	.	.	.	.	8b\J
=51	=51	=51	=51	=51	=51	=51	=51	=51
1r	1r	1r	1r	1r	1r	8r	[1gg\	8e\L
.	.	.	.	.	.	8dd\L	.	8b\
.	.	.	.	.	.	8ee\	.	8cc#\
.	.	.	.	.	.	8ff#\J	.	8dd\J
.	.	.	.	.	.	8gg\L	.	8ee\L
.	.	.	.	.	.	8ff#\	.	8ff#\
.	.	.	.	.	.	8ee\	.	8gg\
.	.	.	.	.	.	8dd\J	.	8b\J
=52	=52	=52	=52	=52	=52	=52	=52	=52
1r	1r	1r	1r	1r	1r	4cc#\	1gg\]	8a\L
.	.	.	.	.	.	.	.	8gg\
.	.	.	.	.	.	4ee\	.	8ee\
.	.	.	.	.	.	.	.	8cc#\J
.	.	.	.	.	.	4cc#\	.	8a\L
.	.	.	.	.	.	.	.	8ee\
.	.	.	.	.	.	4a/	.	8cc#\
.	.	.	.	.	.	.	.	8a\J
=53	=53	=53	=53	=53	=53	=53	=53	=53
1r	1r	1r	1r	1r	1r	2aa\	2ff#\	8d/L
.	.	.	.	.	.	.	.	8f#/
.	.	.	.	.	.	.	.	8g/
.	.	.	.	.	.	.	.	8a/J
.	.	.	.	.	.	[2ddd\	2r	8b/L
.	.	.	.	.	.	.	.	8cc#/
.	.	.	.	.	.	.	.	8dd/
.	.	.	.	.	.	.	.	8f#/J
=54	=54	=54	=54	=54	=54	=54	=54	=54
1r	1r	1r	1r	1r	1r	4ddd\]	1r	8e/L
.	.	.	.	.	.	.	.	8g/
.	.	.	.	.	.	8ccc#\L	.	8a/
.	.	.	.	.	.	8ddd\J	.	8b/J
.	.	.	.	.	.	4eee\	.	8cc#/L
.	.	.	.	.	.	.	.	8dd/
.	.	.	.	.	.	8ddd\L	.	8ee/
.	.	.	.	.	.	8ccc#\J	.	8g/J
=55	=55	=55	=55	=55	=55	=55	=55	=55
1r	1r	1r	1r	1r	1r	4ddd\	2aa\	8f#/L
.	.	.	.	.	.	.	.	8a/
.	.	.	.	.	.	4aa\	.	8b/
.	.	.	.	.	.	.	.	8cc#/J
.	.	.	.	.	.	4bb\	[2ddd\	8dd\L
.	.	.	.	.	.	.	.	8ee\
.	.	.	.	.	.	4ff#\	.	8ff#\
.	.	.	.	.	.	.	.	8cc\J
=56	=56	=56	=56	=56	=56	=56	=56	=56
1r	1r	1r	1r	1r	1r	4gg\	4ddd\]	8b\L
.	.	.	.	.	.	.	.	8dd\
.	.	.	.	.	.	4ee\	8ccc#\L	8ee\
.	.	.	.	.	.	.	8ddd\J	8ff#\J
.	.	.	.	.	.	4aa\	4eee\	8gg\L
.	.	.	.	.	.	.	.	8bb\
.	.	.	.	.	.	4ee\	8ddd\L	8aa\
.	.	.	.	.	.	.	8ccc#\J	8gg\J
=57	=57	=57	=57	=57	=57	=57	=57	=57
1r	1r	1r	1r	1r	1r	[1ff#\	8ddd\L	8ff#\L
.	.	.	.	.	.	.	8ccc#\	8a\
.	.	.	.	.	.	.	8ddd\	8b\
.	.	.	.	.	.	.	8eee\J	8cc#\J
.	.	.	.	.	.	.	8fff#\L	8dd\L
.	.	.	.	.	.	.	8eee\	8ee\
.	.	.	.	.	.	.	8ddd\	8ff#\
.	.	.	.	.	.	.	8ccc#\J	8a\J
=58	=58	=58	=58	=58	=58	=58	=58	=58
1r	1r	1r	1r	1r	1r	1ff#\]	4bb\	8g#\L
.	.	.	.	.	.	.	.	8ff#\
.	.	.	.	.	.	.	4ddd\	8dd\
.	.	.	.	.	.	.	.	8b\J
.	.	.	.	.	.	.	4bb\	8g#\L
.	.	.	.	.	.	.	.	8dd\
.	.	.	.	.	.	.	4gg#\	8b\
.	.	.	.	.	.	.	.	8g#\J
=59	=59	=59	=59	=59	=59	=59	=59	=59
1r	1r	1r	1r	1r	1r	[1ee\	8r	8c#/L
.	.	.	.	.	.	.	8bb\L	8g#/
.	.	.	.	.	.	.	8ccc#\	8a/
.	.	.	.	.	.	.	8ddd\J	8b/J
.	.	.	.	.	.	.	8eee\L	8cc#/L
.	.	.	.	.	.	.	8ddd\	8dd/
.	.	.	.	.	.	.	8ccc#\	8ee/
.	.	.	.	.	.	.	8bb\J	8g#/J
=60	=60	=60	=60	=60	=60	=60	=60	=60
1r	1r	1r	1r	1r	1r	1ee\]	4aa\	8f#/L
.	.	.	.	.	.	.	.	8ee/
.	.	.	.	.	.	.	4ccc#\	8cc#/
.	.	.	.	.	.	.	.	8a/J
.	.	.	.	.	.	.	4aa\	8f#/L
.	.	.	.	.	.	.	.	8cc#/
.	.	.	.	.	.	.	4ff#\	8a/
.	.	.	.	.	.	.	.	8f#/J
=61	=61	=61	=61	=61	=61	=61	=61	=61
1r	1r	1r	1r	1r	1r	[1dd\	8r	8B/L
.	.	.	.	.	.	.	8aa\L	8f#/
.	.	.	.	.	.	.	8bb\	8g#/
.	.	.	.	.	.	.	8ccc#\J	8a/J
.	.	.	.	.	.	.	8ddd\L	8b/L
.	.	.	.	.	.	.	8ccc#\	8cc#/
.	.	.	.	.	.	.	8bb\	8dd/
.	.	.	.	.	.	.	8aa\J	8f#/J
=62	=62	=62	=62	=62	=62	=62	=62	=62
1r	1r	1r	1r	1r	1r	1dd\]	4gg#\	8e/L
.	.	.	.	.	.	.	.	8dd/
.	.	.	.	.	.	.	4bb\	8b/
.	.	.	.	.	.	.	.	8g#/J
.	.	.	.	.	.	.	4gg#\	8e/L
.	.	.	.	.	.	.	.	8b/
.	.	.	.	.	.	.	4ee\	8g#/
.	.	.	.	.	.	.	.	8e/J
=63	=63	=63	=63	=63	=63	=63	=63	=63
1r	1r	1r	1r	1r	4r	2cc#\	8r	4A/
.	.	.	.	.	.	.	8ee\L	.
.	.	.	.	.	4ee\	.	8ff#\	4ee\
.	.	.	.	.	.	.	8gg\J	.
.	.	.	.	.	4ff#\	[2aa\	[2aa\	4ff#\
.	.	.	.	.	4cc#\	.	.	4cc#\
=64	=64	=64	=64	=64	=64	=64	=64	=64
1r	1r	1r	1r	1r	4dd\	2aa\]	2aa\]	4dd\
.	.	.	.	.	4b\	.	.	4b\
.	.	.	.	.	4ee\	[2gg\	[2gg\	4ee\
.	.	.	.	.	4b\	.	.	4b\
=65	=65	=65	=65	=65	=65	=65	=65	=65
1r	1r	1r	1r	4r	4cc#\	2gg\]	2gg\]	4cc#\
.	.	.	.	4a/	4a/	.	.	4a/
.	.	.	.	4b/	[2dd\	2ff#\	2ff#\	[2dd\
.	.	.	.	4f#/	.	.	.	.
=66	=66	=66	=66	=66	=66	=66	=66	=66
1r	1r	1r	1r	4g/	2dd\]	[1ee\	[1ee\	2dd\]
.	.	.	.	4e/	.	.	.	.
.	.	.	.	4a/	2cc#\	.	.	2cc#\
.	.	.	.	4e/	.	.	.	.
=67	=67	=67	=67	=67	=67	=67	=67	=67
2DD/	2DDD/	2DD/	4r	8f#/L	1ff#\	2ee\]	2ee\]	1ff#\
.	.	.	.	8a/	.	.	.	.
.	.	.	4a\	8b/	.	.	.	.
.	.	.	.	8cc#/J	.	.	.	.
[2D\	[2DD\	[2D\	4b\	8dd/L	.	2dd\	2dd\	.
.	.	.	.	8cc#/	.	.	.	.
.	.	.	4f#\	8b/	.	.	.	.
.	.	.	.	8a/J	.	.	.	.
=68	=68	=68	=68	=68	=68	=68	=68	=68
4D\]	4DD\]	4D\]	4g\	8b/L	[1ee\	1gg\	1gg\	[1ee\
.	.	.	.	8g/	.	.	.	.
8C#/L	8CC#/L	8C#/L	8e\L	8a/	.	.	.	.
8D/J	8DD/J	8D/J	8f#\J	8b/J	.	.	.	.
4E\	4EE\	4E\	4g\	8cc#\L	.	.	.	.
.	.	.	.	8dd\	.	.	.	.
8D/L	8DD/L	8D/L	4e\	8ee\	.	.	.	.
8C#/J	8CC#/J	8C#/J	.	8cc#\J	.	.	.	.
=69	=69	=69	=69	=69	=69	=69	=69	=69
4D\	4DD\	4D\	4A/	8ff#\L	2ee\]	1ff#\	1ff#\	2ee\]
.	.	.	.	8a\	.	.	.	.
4AA/	4AAA/	4AA/	4e\	8b\	.	.	.	.
.	.	.	.	8cc#\J	.	.	.	.
4BB/	4BBB/	4BB/	4b\	8dd\L	[2dd\	.	.	[2dd\
.	.	.	.	8ee\	.	.	.	.
4FF#/	4FFF#/	4FF#/	4a\	8ff#\	.	.	.	.
.	.	.	.	8dd\J	.	.	.	.
=70	=70	=70	=70	=70	=70	=70	=70	=70
4GG/	4GGG/	4GG/	4b\	8b/L	2dd\]	1ee\	1ee\	2dd\]
.	.	.	.	8g/	.	.	.	.
4EE/	4EEE/	4EE/	8g\L	8a/	.	.	.	.
.	.	.	8f#\J	8b/J	.	.	.	.
4AA/	4AAA/	4AA/	4e\	8cc\L	[2cc\	.	.	[2cc\
.	.	.	.	8dd\	.	.	.	.
4EE/	4EEE/	4EE/	4g\	8ee\	.	.	.	.
.	.	.	.	8cc\J	.	.	.	.
=71	=71	=71	=71	=71	=71	=71	=71	=71
4FF#/	4FFF#/	4FF#/	8a\L	2a/	2cc\]	2dd\	2dd\	2cc\]
.	.	.	8d\	.	.	.	.	.
4D\	4DD\	4D\	8e\	.	.	.	.	.
.	.	.	8f#\J	.	.	.	.	.
4E\	4EE\	4E\	8g\L	4e/	2b\	[2gg\	[2gg\	2b\
.	.	.	8a\	.	.	.	.	.
4BB/	4BBB/	4BB/	8b\	4d/	.	.	.	.
.	.	.	8g\J	.	.	.	.	.
=72	=72	=72	=72	=72	=72	=72	=72	=72
4C#/	4CC#/	4C#/	8e\L	8e/L	1a/	2gg\]	2gg\]	1a/
.	.	.	8c#\	8g/	.	.	.	.
4AA/	4AAA/	4AA/	8d#\	8f#/	.	.	.	.
.	.	.	8e\J	8e/J	.	.	.	.
4D#/	4DD#/	4D#/	8f#\L	[2b/	.	[2ff#\	[2ff#\	.
.	.	.	8d#\	.	.	.	.	.
4BB/	4BBB/	4BB/	8e\	.	.	.	.	.
.	.	.	8f#\J	.	.	.	.	.
=73	=73	=73	=73	=73	=73	=73	=73	=73
4E\	4EE\	4E\	8g\L	4b/]	1g/	2ff#\]	2ff#\]	1g/
.	.	.	8B\	.	.	.	.	.
4BB/	4BBB/	4BB/	8c#\	4a/	.	.	.	.
.	.	.	8d#\J	.	.	.	.	.
4C/	4CC/	4C/	8e\L	8g/L	.	[2ee\	[2ee\	.
.	.	.	8f#\	8a/	.	.	.	.
4GG/	4GGG/	4GG/	8g\	8b/	.	.	.	.
.	.	.	8e\J	8g/J	.	.	.	.
=74	=74	=74	=74	=74	=74	=74	=74	=74
4AA/	4AAA/	4AA/	8c/L	4cc\	1f#/	2ee\]	2ee\]	1f#/
.	.	.	8A/	.	.	.	.	.
4FF#/	4FFF#/	4FF#/	8B/	4a/	.	.	.	.
.	.	.	8c/J	.	.	.	.	.
4BB/	4BBB/	4BB/	8d\L	8f#/L	.	[2dd\	[2dd\	.
.	.	.	8e\	8g/	.	.	.	.
4FF#/	4FFF#/	4FF#/	8f#\	8a/	.	.	.	.
.	.	.	8d\J	8f#/J	.	.	.	.
=75	=75	=75	=75	=75	=75	=75	=75	=75
4GG#/	4GGG#/	4GG#/	8B\L	8b/L	2e/	2dd\]	2dd\]	2e/
.	.	.	8d\	8e/	.	.	.	.
4E\	4EE\	4E\	8c\	8f#/	.	.	.	.
.	.	.	8B\J	8g#/J	.	.	.	.
4F\	4FF\	4F\	4A/	8a/L	[2a/	2cc\	2cc\	[2a/
.	.	.	.	8b/	.	.	.	.
4C/	4CC/	4C/	4e\	8cc/	.	.	.	.
.	.	.	.	8a/J	.	.	.	.
=76	=76	=76	=76	=76	=76	=76	=76	=76
4D\	4DD\	4D\	4f\	8f/L	2a/]	1b\	1b\	2a/]
.	.	.	.	8d/	.	.	.	.
4BB/	4BBB/	4BB/	4d\	8e/	.	.	.	.
.	.	.	.	8f/J	.	.	.	.
4E\	4EE\	4E\	8B\L	8g/L	[2g/	.	.	[2g/
.	.	.	8c\	8a/	.	.	.	.
4BB/	4BBB/	4BB/	8d\	8b/	.	.	.	.
.	.	.	8B\J	8g/J	.	.	.	.
=77	=77	=77	=77	=77	=77	=77	=77	=77
4C#/	4CC#/	4C#/	8e\L	4e/	2g/]	2a/	2a/	2g/]
.	.	.	8g\	.	.	.	.	.
4A\	4AA\	4A\	8f#\	4cc#\	.	.	.	.
.	.	.	8e\J	.	.	.	.	.
4B\	4BB\	4B\	8d\L	4dd\	2f#/	[2dd\	[2dd\	2f#/
.	.	.	8e\	.	.	.	.	.
4F#\	4FF#\	4F#\	8f#\	4a/	.	.	.	.
.	.	.	8d\J	.	.	.	.	.
=78	=78	=78	=78	=78	=78	=78	=78	=78
4G\	4GG\	4G\	8B/L	4b\	1e/	2dd\]	2dd\]	1e/
.	.	.	8G/	.	.	.	.	.
4E\	4EE\	4E\	8A/	4g/	.	.	.	.
.	.	.	8B/J	.	.	.	.	.
4A\	4AA\	4A\	8c\L	8e/L	.	[2cc\	[2cc\	.
.	.	.	8d\	8f#/	.	.	.	.
4E\	4EE\	4E\	8e\	8g/	.	.	.	.
.	.	.	8c\J	8e/J	.	.	.	.
=79	=79	=79	=79	=79	=79	=79	=79	=79
4F#\	4FF#\	4F#\	8A\L	8a/L	2dd\	2cc\]	2cc\]	2dd\
.	.	.	8a\	8cc/	.	.	.	.
4D\	4DD\	4D\	8g\	8b/	.	.	.	.
.	.	.	8f#\J	8a/J	.	.	.	.
4E\	4EE\	4E\	4g\	8g/L	[2gg\	2b\	2b\	[2gg\
.	.	.	.	8a/	.	.	.	.
4BB/	4BBB/	4BB/	4d\	8b/	.	.	.	.
.	.	.	.	8g/J	.	.	.	.
=80	=80	=80	=80	=80	=80	=80	=80	=80
4C/	4CC/	4C/	4e\	8e/L	4gg\]	1a/	1a/	4gg\]
.	.	.	.	8g/	.	.	.	.
4AA/	4AAA/	4AA/	4c\	8a/	8ff#\L	.	.	8ff#\L
.	.	.	.	8b/J	8gg\J	.	.	8gg\J
4D/	4DD/	4D/	8A/L	8cc\L	4aa\	.	.	4aa\
.	.	.	8c/	8ee\	.	.	.	.
4AA/	4AAA/	4AA/	8B/	8dd\	8gg\L	.	.	8gg\L
.	.	.	8A/J	8cc\J	8ff#\J	.	.	8ff#\J
=81	=81	=81	=81	=81	=81	=81	=81	=81
8BB/L	8BBB/L	8BB/L	8d/L	8b/L	4gg\	2g/	2g/	4gg\
8AA/	8AAA/	8AA/	8c/	8f#/	.	.	.	.
8GG/	8GGG/	8GG/	8B/	8g/	4dd\	.	.	4dd\
8FF#/J	8FFF#/J	8FF#/J	8A/J	8a/J	.	.	.	.
8EE/L	8EEE/L	8EE/L	8G/L	4b/	4ee\	[2gg\	[2gg\	4ee\
8FF#/	8FFF#/	8FF#/	8A/	.	.	.	.	.
8GG/	8GGG/	8GG/	8B/	8ee\L	4b\	.	.	4b\
8EE/J	8EEE/J	8EE/J	8G/J	8dd\J	.	.	.	.
=82	=82	=82	=82	=82	=82	=82	=82	=82
2AA/	2AAA/	2AA/	2E/	8cc\L	4cc\	4gg\]	4gg\]	4cc\
.	.	.	.	8dd\	.	.	.	.
.	.	.	.	8cc\	4a/	8aa\L	8aa\L	4a/
.	.	.	.	8b\J	.	8gg\J	8gg\J	.
2C/	2CC/	2C/	2A/	4a/	4dd\	8ff#\L	8ff#\L	4dd\
.	.	.	.	.	.	8gg\	8gg\	.
.	.	.	.	[4dd\	4a/	8ee\	8ee\	4a/
.	.	.	.	.	.	8ff#\J	8ff#\J	.
=83	=83	=83	=83	=83	=83	=83	=83	=83
2BB/	2BBB/	2BB/	4G/	8dd\L]	4b\	8gg\L	8gg\L	4b\
.	.	.	.	8cc\	.	8dd\	8dd\	.
.	.	.	8g\L	8b\	4bb\	8ee\	8ee\	4bb\
.	.	.	8f#\J	8a\J	.	8ff#\J	8ff#\J	.
[2E\	[2EE\	[2E\	8e\L	8g/L	4ccc\	8gg\L	8gg\L	4ccc\
.	.	.	8d\	8f#/	.	8aa\	8aa\	.
.	.	.	8c\	8e/	4gg\	8bb\	8bb\	4gg\
.	.	.	8B\J	8g/J	.	8gg\J	8gg\J	.
=84	=84	=84	=84	=84	=84	=84	=84	=84
2E\]	2EE\]	2E\]	4A/	4f#/	4aa\	8ccc\L	8ccc\L	4aa\
.	.	.	.	.	.	8bb\	8bb\	.
.	.	.	4c\	4a/	4ff#\	8aa\	8aa\	4ff#\
.	.	.	.	.	.	8gg\J	8gg\J	.
[2D\	[2DD\	[2D\	4d\	4b\	4bb\	8ff#\L	8ff#\L	4bb\
.	.	.	.	.	.	8bb\	8bb\	.
.	.	.	4f#\	4dd\	4ff#\	8aa\	8aa\	4ff#\
.	.	.	.	.	.	8bb\J	8bb\J	.
=85	=85	=85	=85	=85	=85	=85	=85	=85
2D\]	2DD\]	2D\]	4b\	[2ee\	4gg\	8ee\L	8ee\L	4gg\
.	.	.	.	.	.	8gg\	8gg\	.
.	.	.	4g\	.	4ee\	8aa\	8aa\	4ee\
.	.	.	.	.	.	8bb\J	8bb\J	.
2C/	2CC/	2C/	4e\	8ee\L]	[2aa\	8aa\L	8aa\L	[2aa\
.	.	.	.	8ee\	.	8gg\	8gg\	.
.	.	.	4cc\	8dd#\	.	8ff#\	8ff#\	.
.	.	.	.	8ee\J	.	8ee\J	8ee\J	.
=86	=86	=86	=86	=86	=86	=86	=86	=86
4BB/	4BBB/	4BB/	4f#\	8ff#\L	4aa\]	4dd#\	4dd#\	4aa\]
.	.	.	.	8dd#\	.	.	.	.
4E\	4EE\	4E\	4e\	8b\	8gg\L	8ee\L	8ee\L	8gg\L
.	.	.	.	8a\J	8aa\J	8ff#\J	8ff#\J	8aa\J
4B\	4BB\	4B\	4f#\	4b\	4.ff#t\	4.dd#t\	4.dd#t\	4.ff#t\
4BB/	4BBB/	4BB/	4b\	4f#/	.	.	.	.
.	.	.	.	.	8ee\	8ee\	8ee\	8ee\
=87	=87	=87	=87	=87	=87	=87	=87	=87
2E\	2EEE/	2E\	2b\	2g/	2ee\	2ee\	2ee\	8ee\L
.	.	.	.	.	.	.	.	8b\
.	.	.	.	.	.	.	.	8ee\
.	.	.	.	.	.	.	.	8gg\J
2r	2r	2r	2r	2r	2r	2r	2r	8bb\L
.	.	.	.	.	.	.	.	8gg\
.	.	.	.	.	.	.	.	8ff#\
.	.	.	.	.	.	.	.	8ee\J
=88	=88	=88	=88	=88	=88	=88	=88	=88
2B\	1r	2B\	1r	1r	1r	1r	1r	8dd#\L
.	.	.	.	.	.	.	.	8ff#\
.	.	.	.	.	.	.	.	8dd#\
.	.	.	.	.	.	.	.	8b\J
2BB/	.	2BB/	.	.	.	.	.	8f#/L
.	.	.	.	.	.	.	.	8a/
.	.	.	.	.	.	.	.	8g/
.	.	.	.	.	.	.	.	8f#/J
=89	=89	=89	=89	=89	=89	=89	=89	=89
2E\	1r	2E\	1r	1r	1r	1r	1r	8g\L
.	.	.	.	.	.	.	.	8b\
.	.	.	.	.	.	.	.	8ee\
.	.	.	.	.	.	.	.	8gg\J
2r	.	2r	.	.	.	.	.	8bb\L
.	.	.	.	.	.	.	.	8gg\
.	.	.	.	.	.	.	.	8ff#\
.	.	.	.	.	.	.	.	8ee\J
=90	=90	=90	=90	=90	=90	=90	=90	=90
2B\	1r	2B\	1r	1r	1r	1r	1r	8dd#\L
.	.	.	.	.	.	.	.	8ff#\
.	.	.	.	.	.	.	.	8dd#\
.	.	.	.	.	.	.	.	8b\J
2BB/	.	2BB/	.	.	.	.	.	8f#/L
.	.	.	.	.	.	.	.	8a/
.	.	.	.	.	.	.	.	8g/
.	.	.	.	.	.	.	.	8f#/J
=91	=91	=91	=91	=91	=91	=91	=91	=91
2E\	1r	2E\	1r	1r	1r	1r	1r	8g/L
.	.	.	.	.	.	.	.	8e/
.	.	.	.	.	.	.	.	8g/
.	.	.	.	.	.	.	.	8b/J
2r	.	2r	.	.	.	.	.	8ee\L
.	.	.	.	.	.	.	.	8gg\
.	.	.	.	.	.	.	.	8bb\
.	.	.	.	.	.	.	.	8dd\J
=92	=92	=92	=92	=92	=92	=92	=92	=92
2A\	1r	2A\	1r	1r	1r	1r	1r	8cc#\L
.	.	.	.	.	.	.	.	8ee\
.	.	.	.	.	.	.	.	8cc#\
.	.	.	.	.	.	.	.	8a\J
2AA/	.	2AA/	.	.	.	.	.	8e/L
.	.	.	.	.	.	.	.	8g/
.	.	.	.	.	.	.	.	8f#/
.	.	.	.	.	.	.	.	8e/J
=93	=93	=93	=93	=93	=93	=93	=93	=93
2D\	1r	2D\	1r	1r	1r	1r	1r	8f#/L
.	.	.	.	.	.	.	.	8d/
.	.	.	.	.	.	.	.	8f#/
.	.	.	.	.	.	.	.	8a/J
2r	.	2r	.	.	.	.	.	8dd\L
.	.	.	.	.	.	.	.	8ff#\
.	.	.	.	.	.	.	.	8aa\
.	.	.	.	.	.	.	.	8dd\J
=94	=94	=94	=94	=94	=94	=94	=94	=94
2A\	1r	2A\	1r	1r	1r	1r	1r	8cc#\L
.	.	.	.	.	.	.	.	8ee\
.	.	.	.	.	.	.	.	8cc#\
.	.	.	.	.	.	.	.	8a\J
2AA/	.	2AA/	.	.	.	.	.	8e/L
.	.	.	.	.	.	.	.	8g/
.	.	.	.	.	.	.	.	8f#/
.	.	.	.	.	.	.	.	8e/J
=95	=95	=95	=95	=95	=95	=95	=95	=95
2D\	2DD\	2D\	4r	4r	4r	1r	1r	8f#/L
.	.	.	.	.	.	.	.	8a/
.	.	.	(4a\	(4cc\	(4ff#\	.	.	8f#/
.	.	.	.	.	.	.	.	8d/J
2r	2r	2r	4a\	4cc\	4ff#\	.	.	(16a/LL
.	.	.	.	.	.	.	.	16g/
.	.	.	.	.	.	.	.	16f#/
.	.	.	.	.	.	.	.	16e/JJ
.	.	.	4a\)	4cc\)	4ff#\)	.	.	8d/L)
.	.	.	.	.	.	.	.	8a/J
=96	=96	=96	=96	=96	=96	=96	=96	=96
2D\	2DD\	2D\	4r	4r	4r	1r	1r	8c/L
.	.	.	.	.	.	.	.	8a/
.	.	.	(4a\	(4cc\	(4ff#\	.	.	8f#/
.	.	.	.	.	.	.	.	8c/J
2DD/	2DDD/	2DD/	4a\	4cc\	4ff#\	.	.	(16a/LL
.	.	.	.	.	.	.	.	16g/
.	.	.	.	.	.	.	.	16f#/
.	.	.	.	.	.	.	.	16e/
.	.	.	4a\)	4cc\)	4ff#\)	.	.	16d/
.	.	.	.	.	.	.	.	16c/
.	.	.	.	.	.	.	.	16B/
.	.	.	.	.	.	.	.	16A/JJ
=97	=97	=97	=97	=97	=97	=97	=97	=97
2GG/	2GGG/	2GG/	4g\	4b\	4gg\	4r	4r	8B/L)
.	.	.	.	.	.	.	.	8dd/
.	.	.	4r	4r	4r	(4ff\	(4bb\	8b/
.	.	.	.	.	.	.	.	8g/J
2r	2r	2r	2r	2r	2r	4ff\	4bb\	(16dd/LL
.	.	.	.	.	.	.	.	16cc/
.	.	.	.	.	.	.	.	16b/
.	.	.	.	.	.	.	.	16a/JJ
.	.	.	.	.	.	4ff\)	4bb\)	8g/L)
.	.	.	.	.	.	.	.	8dd/J
=98	=98	=98	=98	=98	=98	=98	=98	=98
2G\	1r	2G\	1r	1r	1r	4r	4r	8f/L
.	.	.	.	.	.	.	.	8dd/
.	.	.	.	.	.	(4ff\	(4bb\	8b/
.	.	.	.	.	.	.	.	8f/J
2GG/	.	2GG/	.	.	.	4ff\	4bb\	(16dd/LL
.	.	.	.	.	.	.	.	16cc/
.	.	.	.	.	.	.	.	16b/
.	.	.	.	.	.	.	.	16a/
.	.	.	.	.	.	4ff\)	4bb\)	16g/
.	.	.	.	.	.	.	.	16f/
.	.	.	.	.	.	.	.	16e/
.	.	.	.	.	.	.	.	16d/JJ
=99	=99	=99	=99	=99	=99	=99	=99	=99
2GG#/	2GGG#/	2GG#/	4r	4r	4r	2ee\	2bb\	8e/L)
.	.	.	.	.	.	.	.	8b/
.	.	.	(4e\	(4b\	(4dd\	.	.	8g#/
.	.	.	.	.	.	.	.	8e/J
2r	2r	2r	4e\	4b\	4dd\	4r	4r	(16b/LL
.	.	.	.	.	.	.	.	16a/
.	.	.	.	.	.	.	.	16g#/
.	.	.	.	.	.	.	.	16f#/JJ
.	.	.	4e\)	4b\)	4dd\)	(4ee\	(4bb\	8e/L)
.	.	.	.	.	.	.	.	8b/J
=100	=100	=100	=100	=100	=100	=100	=100	=100
2GG#/	2GGG#/	2GG#/	4r	4r	4r	4ee\	4bb\	8d/L
.	.	.	.	.	.	.	.	8b/
.	.	.	(4e\	(4b/	(4dd\	4ee\)	4bb\)	8g#/
.	.	.	.	.	.	.	.	8d/J
2EE/	2EEE/	2EE/	4e\	4g#/	4dd\	4r	4r	(16b/LL
.	.	.	.	.	.	.	.	16a/
.	.	.	.	.	.	.	.	16g#/
.	.	.	.	.	.	.	.	16f#/
.	.	.	4e\)	4g#/)	4dd\)	4ee\	4bb\	16e/
.	.	.	.	.	.	.	.	16d/
.	.	.	.	.	.	.	.	16c/
.	.	.	.	.	.	.	.	16B/JJ)
=101	=101	=101	=101	=101	=101	=101	=101	=101
4AA/	4AAA/	4AA/	2e\	2a/	2cc\	2ee\	2aa\	(16c/LL
.	.	.	.	.	.	.	.	16e/
.	.	.	.	.	.	.	.	16f#/
.	.	.	.	.	.	.	.	16g#/
4BB/	4r	4BB/	.	.	.	.	.	16a/
.	.	.	.	.	.	.	.	16b/
.	.	.	.	.	.	.	.	16cc/
.	.	.	.	.	.	.	.	16dd/
4C/	2r	4C/	2r	2r	2r	2r	2r	16ee/
.	.	.	.	.	.	.	.	16ff/
.	.	.	.	.	.	.	.	16ee/
.	.	.	.	.	.	.	.	16dd/
4AA/	.	4AA/	.	.	.	.	.	16cc/
.	.	.	.	.	.	.	.	16b/
.	.	.	.	.	.	.	.	16a/
.	.	.	.	.	.	.	.	16g/JJ)
=102	=102	=102	=102	=102	=102	=102	=102	=102
4D#/	1r	4D#/	1r	1r	1r	1r	1r	(16f#/LL
.	.	.	.	.	.	.	.	16e/
.	.	.	.	.	.	.	.	16d#/
.	.	.	.	.	.	.	.	16e/
4C#/	.	4C#/	.	.	.	.	.	16f#/
.	.	.	.	.	.	.	.	16g/
.	.	.	.	.	.	.	.	16a/
.	.	.	.	.	.	.	.	16b/
4D#/	.	4D#/	.	.	.	.	.	16cc/
.	.	.	.	.	.	.	.	16dd#/
.	.	.	.	.	.	.	.	16ee/
.	.	.	.	.	.	.	.	16ff#/
4BB/	.	4BB/	.	.	.	.	.	16ee/
.	.	.	.	.	.	.	.	16dd#/
.	.	.	.	.	.	.	.	16cc#/
.	.	.	.	.	.	.	.	16b/JJ)
=103	=103	=103	=103	=103	=103	=103	=103	=103
4E\	1r	4E\	1r	1r	1r	1r	1r	(16gg\LL
.	.	.	.	.	.	.	.	16e\
.	.	.	.	.	.	.	.	16f#\
.	.	.	.	.	.	.	.	16g\
4F#\	.	4F#\	.	.	.	.	.	16a\
.	.	.	.	.	.	.	.	16b\
.	.	.	.	.	.	.	.	16cc\
.	.	.	.	.	.	.	.	16dd\
4G\	.	4G\	.	.	.	.	.	16ee\
.	.	.	.	.	.	.	.	16ff#\
.	.	.	.	.	.	.	.	16gg\
.	.	.	.	.	.	.	.	16ff#\
4c\	.	4c\	.	.	.	.	.	16ee\
.	.	.	.	.	.	.	.	16dd\
.	.	.	.	.	.	.	.	16cc\
.	.	.	.	.	.	.	.	16b\JJ)
=104	=104	=104	=104	=104	=104	=104	=104	=104
4F#\	1r	4F#\	1r	1r	1r	1r	1r	(16a\LL
.	.	.	.	.	.	.	.	16f#\
.	.	.	.	.	.	.	.	16g\
.	.	.	.	.	.	.	.	16a\
4G\	.	4G\	.	.	.	.	.	16b\
.	.	.	.	.	.	.	.	16cc\
.	.	.	.	.	.	.	.	16dd\
.	.	.	.	.	.	.	.	16ee\
4A\	.	4A\	.	.	.	.	.	16ff#\
.	.	.	.	.	.	.	.	16gg\
.	.	.	.	.	.	.	.	16aa\
.	.	.	.	.	.	.	.	16gg\
4d\	.	4d\	.	.	.	.	.	16ff#\
.	.	.	.	.	.	.	.	16ee\
.	.	.	.	.	.	.	.	16dd\
.	.	.	.	.	.	.	.	16cc\JJ)
=105	=105	=105	=105	=105	=105	=105	=105	=105
2G\	1r	2G\	1r	1r	2d/	1r	1r	(16b\LL
.	.	.	.	.	.	.	.	16dd\
.	.	.	.	.	.	.	.	16ee\
.	.	.	.	.	.	.	.	16ff#\
.	.	.	.	.	.	.	.	16gg\
.	.	.	.	.	.	.	.	16aa\
.	.	.	.	.	.	.	.	16bb\
.	.	.	.	.	.	.	.	16ccc\
2BB/	.	2BB/	.	.	[2dd\	.	.	16ddd\
.	.	.	.	.	.	.	.	16ccc\
.	.	.	.	.	.	.	.	16bb\
.	.	.	.	.	.	.	.	16aa\
.	.	.	.	.	.	.	.	16gg\
.	.	.	.	.	.	.	.	16ff#\
.	.	.	.	.	.	.	.	16ee\
.	.	.	.	.	.	.	.	16dd\JJ)
=106	=106	=106	=106	=106	=106	=106	=106	=106
2C/	1r	2C/	1r	2G/	4dd\]	1r	1r	16ee\LL 16r
.	.	.	.	.	.	.	.	16r 16ee/LL
.	.	.	.	.	.	.	.	16ee\JJ 16r
.	.	.	.	.	.	.	.	16r 16ee/JJ
.	.	.	.	.	8b\L	.	.	16ee\LL 16r
.	.	.	.	.	.	.	.	16r 16ee/LL
.	.	.	.	.	8cc\J	.	.	16ee\JJ 16r
.	.	.	.	.	.	.	.	16r 16ee/JJ
2r	.	2r	.	[2g/	4dd\	.	.	16ee\LL
.	.	.	.	.	.	.	.	16ddd\
.	.	.	.	.	.	.	.	16ee\
.	.	.	.	.	.	.	.	16ddd\JJ
.	.	.	.	.	8cc\L	.	.	16ee\LL
.	.	.	.	.	.	.	.	16ddd\
.	.	.	.	.	8b\J	.	.	16ee\
.	.	.	.	.	.	.	.	16ddd\JJ
=107	=107	=107	=107	=107	=107	=107	=107	=107
2AA/	1r	2AA/	1r	4g/]	4cc\	1r	1r	16ee\LL 16r
.	.	.	.	.	.	.	.	16r 16ee/LL
.	.	.	.	.	.	.	.	16ee\JJ 16r
.	.	.	.	.	.	.	.	16r 16ee/JJ
.	.	.	.	8e/L	4g/	.	.	16ee\LL 16r
.	.	.	.	.	.	.	.	16r 16ee/LL
.	.	.	.	8f#/J	.	.	.	16ee\JJ 16r
.	.	.	.	.	.	.	.	16r 16ee/JJ
2r	.	2r	.	4g/	[2cc\	.	.	16ee\LL
.	.	.	.	.	.	.	.	16ccc\
.	.	.	.	.	.	.	.	16ee\
.	.	.	.	.	.	.	.	16ccc\JJ
.	.	.	.	8f#/L	.	.	.	16ee\LL
.	.	.	.	.	.	.	.	16ccc\
.	.	.	.	8e/J	.	.	.	16ee\
.	.	.	.	.	.	.	.	16ccc\JJ
=108	=108	=108	=108	=108	=108	=108	=108	=108
2DD/	1r	2DD/	1r	4f#/	4cc\]	1r	1r	16dd\LL 16r
.	.	.	.	.	.	.	.	16r 16ee/LL
.	.	.	.	.	.	.	.	16dd\JJ 16r
.	.	.	.	.	.	.	.	16r 16ee/JJ
.	.	.	.	4cc\	8a/L	.	.	16dd\LL 16r
.	.	.	.	.	.	.	.	16r 16ee/LL
.	.	.	.	.	8b/J	.	.	16dd\JJ 16r
.	.	.	.	.	.	.	.	16r 16ee/JJ
2r	.	2r	.	2f#/	4cc\	.	.	16dd\LL
.	.	.	.	.	.	.	.	16ccc\
.	.	.	.	.	.	.	.	16dd\
.	.	.	.	.	.	.	.	16ccc\JJ
.	.	.	.	.	8b/L	.	.	16dd\LL
.	.	.	.	.	.	.	.	16ccc\
.	.	.	.	.	8a/J	.	.	16dd\
.	.	.	.	.	.	.	.	16ccc\JJ
=109	=109	=109	=109	=109	=109	=109	=109	=109
2GG/	1r	2GG/	1r	4f/	4b\	1r	1r	16dd\LL 16r
.	.	.	.	.	.	.	.	16r 16ee/LL
.	.	.	.	.	.	.	.	16dd\JJ 16r
.	.	.	.	.	.	.	.	16r 16ee/JJ
.	.	.	.	8d/L	4ff\	.	.	16dd\LL 16r
.	.	.	.	.	.	.	.	16r 16ee/LL
.	.	.	.	8e/J	.	.	.	16dd\JJ 16r
.	.	.	.	.	.	.	.	16r 16ee/JJ
2r	.	2r	.	4f/	[2b\	.	.	16dd\LL
.	.	.	.	.	.	.	.	16bb\
.	.	.	.	.	.	.	.	16dd\
.	.	.	.	.	.	.	.	16bb\JJ
.	.	.	.	8e/L	.	.	.	16dd\LL
.	.	.	.	.	.	.	.	16bb\
.	.	.	.	8d/J	.	.	.	16dd\
.	.	.	.	.	.	.	.	16bb\JJ
=110	=110	=110	=110	=110	=110	=110	=110	=110
2CC/	1r	2CC/	1r	4e/	4b\]	1r	1r	16cc\LL 16r
.	.	.	.	.	.	.	.	16r 16ee/LL
.	.	.	.	.	.	.	.	16cc\JJ 16r
.	.	.	.	.	.	.	.	16r 16ee/JJ
.	.	.	.	4b/	8g#/L	.	.	16cc\LL 16r
.	.	.	.	.	.	.	.	16r 16ee/LL
.	.	.	.	.	8a/J	.	.	16cc\JJ 16r
.	.	.	.	.	.	.	.	16r 16ee/JJ
2r	.	2r	.	[2e/	4b\	.	.	16cc\LL
.	.	.	.	.	.	.	.	16bb\
.	.	.	.	.	.	.	.	16cc\
.	.	.	.	.	.	.	.	16bb\JJ
.	.	.	.	.	8a/L	.	.	16cc\LL
.	.	.	.	.	.	.	.	16bb\
.	.	.	.	.	8g#/J	.	.	16cc\
.	.	.	.	.	.	.	.	16bb\JJ
=111	=111	=111	=111	=111	=111	=111	=111	=111
2C/	1r	2C/	1r	4e/]	4a/	1r	1r	16cc\LL
.	.	.	.	.	.	.	.	16ee\
.	.	.	.	.	.	.	.	16cc\
.	.	.	.	.	.	.	.	16ee\JJ
.	.	.	.	8c/L	4e/	.	.	16cc\LL
.	.	.	.	.	.	.	.	16ee\
.	.	.	.	8d/J	.	.	.	16cc\
.	.	.	.	.	.	.	.	16ee\JJ
2AA/	.	2AA/	.	4e/	[2a/	.	.	16cc\LL
.	.	.	.	.	.	.	.	16aa\
.	.	.	.	.	.	.	.	16cc\
.	.	.	.	.	.	.	.	16aa\JJ
.	.	.	.	8d/L	.	.	.	16cc\LL
.	.	.	.	.	.	.	.	16aa\
.	.	.	.	8c/J	.	.	.	16cc\
.	.	.	.	.	.	.	.	16aa\JJ
=112	=112	=112	=112	=112	=112	=112	=112	=112
2E\	1r	2E\	1r	4B/	4a/]	1r	1r	16b\LL
.	.	.	.	.	.	.	.	16ee\
.	.	.	.	.	.	.	.	16b\
.	.	.	.	.	.	.	.	16ee\JJ
.	.	.	.	8d#/L	8f#/L	.	.	16b\LL
.	.	.	.	.	.	.	.	16ee\
.	.	.	.	8e/J	8g/J	.	.	16b\
.	.	.	.	.	.	.	.	16ee\JJ
2EE/	.	2EE/	.	4f#/	4a/	.	.	16b\LL
.	.	.	.	.	.	.	.	16aa\
.	.	.	.	.	.	.	.	16b\
.	.	.	.	.	.	.	.	16aa\JJ
.	.	.	.	8e/L	8g/L	.	.	16b\LL
.	.	.	.	.	.	.	.	16aa\
.	.	.	.	8d#/J	8f#/J	.	.	16b\
.	.	.	.	.	.	.	.	16aa\JJ
=113	=113	=113	=113	=113	=113	=113	=113	=113
4E\	1r	4E\	1r	2e/	2g/	1r	1r	16b\LL
.	.	.	.	.	.	.	.	16ee\
.	.	.	.	.	.	.	.	16b\
.	.	.	.	.	.	.	.	16ee\JJ
4F#\	.	4F#\	.	.	.	.	.	16b\LL
.	.	.	.	.	.	.	.	16ee\
.	.	.	.	.	.	.	.	16b\
.	.	.	.	.	.	.	.	16ee\JJ
4E\	.	4E\	.	2r	2r	.	.	16b\LL
.	.	.	.	.	.	.	.	16gg\
.	.	.	.	.	.	.	.	16b\
.	.	.	.	.	.	.	.	16gg\JJ
4D\	.	4D\	.	.	.	.	.	16b\LL
.	.	.	.	.	.	.	.	16gg\
.	.	.	.	.	.	.	.	16b\
.	.	.	.	.	.	.	.	16gg\JJ
=114	=114	=114	=114	=114	=114	=114	=114	=114
4C#/	1r	4C#/	1r	1r	1r	1r	1r	16a\LL 16r
.	.	.	.	.	.	.	.	16r 16a/LL
.	.	.	.	.	.	.	.	16a\JJ 16r
.	.	.	.	.	.	.	.	16r 16a/JJ
4BB/	.	4BB/	.	.	.	.	.	16a\LL 16r
.	.	.	.	.	.	.	.	16r 16a/LL
.	.	.	.	.	.	.	.	16a\JJ 16r
.	.	.	.	.	.	.	.	16r 16a/JJ
4C#/	.	4C#/	.	.	.	.	.	16a\LL
.	.	.	.	.	.	.	.	16gg\
.	.	.	.	.	.	.	.	16a\
.	.	.	.	.	.	.	.	16gg\JJ
4AA/	.	4AA/	.	.	.	.	.	16a\LL
.	.	.	.	.	.	.	.	16gg\
.	.	.	.	.	.	.	.	16a\
.	.	.	.	.	.	.	.	16gg\JJ
=115	=115	=115	=115	=115	=115	=115	=115	=115
4D#/	1r	4D#/	1r	1r	1r	1r	1r	16a\LL 16r
.	.	.	.	.	.	.	.	16r 16a/LL
.	.	.	.	.	.	.	.	16a\JJ 16r
.	.	.	.	.	.	.	.	16r 16a/JJ
4C#/	.	4C#/	.	.	.	.	.	16a\LL 16r
.	.	.	.	.	.	.	.	16r 16a/LL
.	.	.	.	.	.	.	.	16a\JJ 16r
.	.	.	.	.	.	.	.	16r 16a/JJ
4D#/	.	4D#/	.	.	.	.	.	16a\LL
.	.	.	.	.	.	.	.	16ff#\
.	.	.	.	.	.	.	.	16a\
.	.	.	.	.	.	.	.	16ff#\JJ
4BB/	.	4BB/	.	.	.	.	.	16a\LL
.	.	.	.	.	.	.	.	16ff#\
.	.	.	.	.	.	.	.	16a\
.	.	.	.	.	.	.	.	16ff#\JJ
=116	=116	=116	=116	=116	=116	=116	=116	=116
4E\	1r	4E\	1r	1r	1r	1r	1r	16g\LL 16r
.	.	.	.	.	.	.	.	16r 16a/LL
.	.	.	.	.	.	.	.	16g\JJ 16r
.	.	.	.	.	.	.	.	16r 16a/JJ
4B\	.	4B\	.	.	.	.	.	16g\LL 16r
.	.	.	.	.	.	.	.	16r 16a/LL
.	.	.	.	.	.	.	.	16g\JJ 16r
.	.	.	.	.	.	.	.	16r 16a/JJ
4e\	.	4e\	.	.	.	.	.	16g\LL
.	.	.	.	.	.	.	.	16ff#\
.	.	.	.	.	.	.	.	16g\
.	.	.	.	.	.	.	.	16ff#\JJ
4d\	.	4d\	.	.	.	.	.	16g\LL
.	.	.	.	.	.	.	.	16ff#\
.	.	.	.	.	.	.	.	16g\
.	.	.	.	.	.	.	.	16ff#\JJ
=117	=117	=117	=117	=117	=117	=117	=117	=117
4c\	1r	4c\	1r	1r	1r	1r	1r	16g\LL 16r
.	.	.	.	.	.	.	.	16r 16a/LL
.	.	.	.	.	.	.	.	16g\JJ 16r
.	.	.	.	.	.	.	.	16r 16a/JJ
4d\	.	4d\	.	.	.	.	.	16g\LL 16r
.	.	.	.	.	.	.	.	16r 16a/LL
.	.	.	.	.	.	.	.	16g\JJ 16r
.	.	.	.	.	.	.	.	16r 16a/JJ
4c\	.	4c\	.	.	.	.	.	16g\LL
.	.	.	.	.	.	.	.	16ee\
.	.	.	.	.	.	.	.	16g\
.	.	.	.	.	.	.	.	16ee\JJ
4B\	.	4B\	.	.	.	.	.	16g\LL
.	.	.	.	.	.	.	.	16ee\
.	.	.	.	.	.	.	.	16g\
.	.	.	.	.	.	.	.	16ee\JJ
=118	=118	=118	=118	=118	=118	=118	=118	=118
4A\	1r	4A\	1r	1r	1r	1r	1r	16f#\LL 16r
.	.	.	.	.	.	.	.	16r 16a/LL
.	.	.	.	.	.	.	.	16f#\JJ 16r
.	.	.	.	.	.	.	.	16r 16a/JJ
4G\	.	4G\	.	.	.	.	.	16f#\LL 16r
.	.	.	.	.	.	.	.	16r 16a/LL
.	.	.	.	.	.	.	.	16f#\JJ 16r
.	.	.	.	.	.	.	.	16r 16a/JJ
4A\	.	4A\	.	.	.	.	.	16f#\LL
.	.	.	.	.	.	.	.	16ee\
.	.	.	.	.	.	.	.	16f#\
.	.	.	.	.	.	.	.	16ee\JJ
4F#\	.	4F#\	.	.	.	.	.	16f#\LL
.	.	.	.	.	.	.	.	16ee\
.	.	.	.	.	.	.	.	16f#\
.	.	.	.	.	.	.	.	16ee\JJ
=119	=119	=119	=119	=119	=119	=119	=119	=119
4B\	1r	4B\	1r	1r	1r	1r	1r	16f#/LL
.	.	.	.	.	.	.	.	16a/
.	.	.	.	.	.	.	.	16f#/
.	.	.	.	.	.	.	.	16a/JJ
4c\	.	4c\	.	.	.	.	.	16f#/LL
.	.	.	.	.	.	.	.	16a/
.	.	.	.	.	.	.	.	16f#/
.	.	.	.	.	.	.	.	16a/JJ
4B\	.	4B\	.	.	.	.	.	16f#/LL
.	.	.	.	.	.	.	.	16dd#/
.	.	.	.	.	.	.	.	16f#/
.	.	.	.	.	.	.	.	16dd#/JJ
4A\	.	4A\	.	.	.	.	.	16f#/LL
.	.	.	.	.	.	.	.	16dd#/
.	.	.	.	.	.	.	.	16f#/
.	.	.	.	.	.	.	.	16dd#/JJ
=120	=120	=120	=120	=120	=120	=120	=120	=120
2G#\	1r	2G#\	1r	1r	1r	1r	1r	8e\L
.	.	.	.	.	.	.	.	8bb\
.	.	.	.	.	.	.	.	8gg#\
.	.	.	.	.	.	.	.	8ee\J
2r	.	2r	.	.	.	.	.	8ff\L
.	.	.	.	.	.	.	.	8dd\
.	.	.	.	.	.	.	.	8b\
.	.	.	.	.	.	.	.	8dd\J
=121	=121	=121	=121	=121	=121	=121	=121	=121
4r	1r	4r	1r	1r	1r	1r	1r	8cc\L
.	.	.	.	.	.	.	.	8aa\
(4A\	.	(4A\	.	.	.	.	.	8ee\
.	.	.	.	.	.	.	.	8cc\J
4A\	.	4A\	.	.	.	.	.	8ee\L
.	.	.	.	.	.	.	.	8cc\
4A\)	.	4A\)	.	.	.	.	.	8g\
.	.	.	.	.	.	.	.	8b-\J
=122	=122	=122	=122	=122	=122	=122	=122	=122
4r	1r	4r	1r	1r	1r	1r	1r	8a\L
.	.	.	.	.	.	.	.	8ff\
(4A\	.	(4A\	.	.	.	.	.	8cc\
.	.	.	.	.	.	.	.	8a\J
4A\	.	4A\	.	.	.	.	.	8cc/L
.	.	.	.	.	.	.	.	8a/
4A\)	.	4A\)	.	.	.	.	.	8e/
.	.	.	.	.	.	.	.	8g/J
=123	=123	=123	=123	=123	=123	=123	=123	=123
4r	1r	4r	1r	1r	1r	1r	1r	8f/L
.	.	.	.	.	.	.	.	8A/
(4A\	.	(4A\	.	.	.	.	.	8c/
.	.	.	.	.	.	.	.	8f/J
4A\	.	4A\	.	.	.	.	.	8a/L
.	.	.	.	.	.	.	.	8cc/
4A\)	.	4A\)	.	.	.	.	.	8a/
.	.	.	.	.	.	.	.	8f/J
=124	=124	=124	=124	=124	=124	=124	=124	=124
4A\	1r	4A\	1r	1r	1r	1r	1r	8d#/L
.	.	.	.	.	.	.	.	8f#/
4F#\	.	4F#\	.	.	.	.	.	8a/
.	.	.	.	.	.	.	.	8cc/J
4D#\	.	4D#\	.	.	.	.	.	8ff#\L
.	.	.	.	.	.	.	.	8b\
4BB/	.	4BB/	.	.	.	.	.	8cc\
.	.	.	.	.	.	.	.	8a\J
=125	=125	=125	=125	=125	=125	=125	=125	=125
2E\	1r	2E\	1r	1r	1r	1r	1r	8g/L
.	.	.	.	.	.	.	.	8e/
.	.	.	.	.	.	.	.	8g/
.	.	.	.	.	.	.	.	8b/J
4r	.	4r	.	.	.	.	.	(8dd#\L
.	.	.	.	.	.	.	.	8ee\)
8E\L	.	8E\L	.	.	.	.	.	8gg\
8F#\J	.	8F#\J	.	.	.	.	.	(8aa#\J
=126	=126	=126	=126	=126	=126	=126	=126	=126
4G\	1r	4G\	1r	1r	1r	1r	1r	4bb\)
4A\	.	4A\	.	.	.	.	.	4ee\
4B\	.	4B\	.	.	.	.	.	4b\
4BB/	.	4BB/	.	.	.	.	.	4dd#\
=127	=127	=127	=127	=127	=127	=127	=127	=127
4E\	1r	4E\	1r	2r	2b\	1r	1r	4ee\
8e\L	.	8e\L	.	.	.	.	.	4b\
8d\J	.	8d\J	.	.	.	.	.	.
4c\	.	4c\	.	8r	[2ee\	.	.	[2ee\
.	.	.	.	8e/L	.	.	.	.
4B\	.	4B\	.	8d#/	.	.	.	.
.	.	.	.	8e/J	.	.	.	.
=128	=128	=128	=128	=128	=128	=128	=128	=128
4A\	1r	4A\	1r	8f#/L	4ee\]	1r	1r	4ee\]
.	.	.	.	8e/	.	.	.	.
4F#\	.	4F#\	.	8f#/	8dd#\L	.	.	8dd#\L
.	.	.	.	8g/J	8ee\J	.	.	8ee\J
4B\	.	4B\	.	8a/L	4ff#\	.	.	4ff#\
.	.	.	.	8g/	.	.	.	.
4BB/	.	4BB/	.	8a/	8ee\L	.	.	8ee\L
.	.	.	.	8f#/J	8dd#\J	.	.	8dd#\J
=129	=129	=129	=129	=129	=129	=129	=129	=129
1EE/	1EEE/	1EE/	8r	8g/L	4ee\	1r	1r	4ee\
.	.	.	8cc\L	8a/	.	.	.	.
.	.	.	8b\	8g/	4b\	.	.	4b\
.	.	.	8a\J	8f#/J	.	.	.	.
.	.	.	8g\L	4e/	4cc\	.	.	4cc\
.	.	.	8f#\	.	.	.	.	.
.	.	.	8e\	[4ee\	4g/	.	.	4g/
.	.	.	8d\J	.	.	.	.	.
=130	=130	=130	=130	=130	=130	=130	=130	=130
2FF#/	2FFF#/	2FF#/	8c/L	4ee\]	4a/	1r	1r	4a/
.	.	.	8B/	.	.	.	.	.
.	.	.	8A/	8ff#\L	4f#/	.	.	4f#/
.	.	.	8G/J	8ee\J	.	.	.	.
2AA/	2AAA/	2AA/	8F#/L	8dd#\L	4b\	.	.	4b\
.	.	.	8G/	8ee\	.	.	.	.
.	.	.	8A/	8cc#\	4f#/	.	.	4f#/
.	.	.	8B/J	8dd#\J	.	.	.	.
=131	=131	=131	=131	=131	=131	=131	=131	=131
4GG/	4GGG/	4GG/	4G/	4ee\	8g\L	2ee\	2ee\	8g\L
.	.	.	.	.	8a\	.	.	8a\
8G\L	8GG\L	8G\L	4A/	8dd\L	8b\	.	.	8b\
8A\J	8AA\J	8A\J	.	8cc#\J	8cc#\J	.	.	8cc#\J
4G\	4GG\	4G\	4B/	4b\	8dd\L	[2bb\	[2bb\	8dd\L
.	.	.	.	.	8cc#\	.	.	8cc#\
4F#\	4FF#\	4F#\	4A/	4ff#\	8dd\	.	.	8dd\
.	.	.	.	.	8b\J	.	.	8b\J
=132	=132	=132	=132	=132	=132	=132	=132	=132
4E\	4EE\	4E\	4G/	4gg\	8cc#\L	4bb\]	4bb\]	8cc#\L
.	.	.	.	.	8b\	.	.	8b\
4C#/	4CC#/	4C#/	4g\	4ee\	8cc#\	8aa#\L	8aa#\L	8cc#\
.	.	.	.	.	8dd\J	8bb\J	8bb\J	8dd\J
4F#\	4FF#\	4F#\	4f#\	4cc#\	8ee\L	4ccc#\	4ccc#\	8ee\L
.	.	.	.	.	8dd\	.	.	8dd\
4FF#/	4FFF#/	4FF#/	4c#\	[4ff#\	8ee\	8bb\L	8bb\L	8ee\
.	.	.	.	.	8cc#\J	8aa#\J	8aa#\J	8cc#\J
=133	=133	=133	=133	=133	=133	=133	=133	=133
1BB/	1BBB/	1BB/	1B/	8ff#\L]	8dd\L	4bb\	4bb\	8dd\L
.	.	.	.	8gg\	8ee\	.	.	8ee\
.	.	.	.	8ff#\	8dd\	4ff#\	4ff#\	8dd\
.	.	.	.	8ee\J	8cc#\J	.	.	8cc#\J
.	.	.	.	8dd\L	4b\	4gg\	4gg\	4b\
.	.	.	.	8cc#\	.	.	.	.
.	.	.	.	8b\	[4bb\	4dd\	4dd\	[4bb\
.	.	.	.	8a\J	.	.	.	.
=134	=134	=134	=134	=134	=134	=134	=134	=134
1r	1r	1r	2c#\	8g/L	4bb\]	4ee\	4ee\	4bb\]
.	.	.	.	8f#/	.	.	.	.
.	.	.	.	8e/	8ccc#\L	4cc#\	4cc#\	8ccc#\L
.	.	.	.	8d/J	8bb\J	.	.	8bb\J
.	.	.	2e\	8c#/L	8aa#\L	4ff#\	4ff#\	8aa#\L
.	.	.	.	8d/	8bb\	.	.	8bb\
.	.	.	.	8e/	8gg#\	4cc#\	4cc#\	8gg#\
.	.	.	.	8f#/J	8aa#\J	.	.	8aa#\J
=135	=135	=135	=135	=135	=135	=135	=135	=135
2BB/	2BBB/	2BB/	2d#\	4B/	8bb\L	4dd#\	4dd#\	8bb\L
.	.	.	.	.	8ccc\	.	.	8ccc\
.	.	.	.	2b/	8bb\	4ff#\	4ff#\	8bb\
.	.	.	.	.	8aa\J	.	.	8aa\J
[2E\	[2EE\	[2E\	2e\	.	8gg\L	4gg\	4gg\	8gg\L
.	.	.	.	.	8ff#\	.	.	8ff#\
.	.	.	.	4g/	8ee\	4bb\	4bb\	8ee\
.	.	.	.	.	8dd\J	.	.	8dd\J
=136	=136	=136	=136	=136	=136	=136	=136	=136
4E\]	4EE\]	4E\]	4f#\	2cc\	8cc/L	4aa\	4aa\	8cc/L
.	.	.	.	.	8b/	.	.	8b/
8D#\L	8DD#\L	8D#\L	2a\	.	8a/	4ccc\	4ccc\	8a/
8E\J	8EE\J	8E\J	.	.	8g/J	.	.	8g/J
4F#\	4FF#\	4F#\	.	[2b\	8f#/L	4dd#\	4dd#\	8f#/L
.	.	.	.	.	8g/	.	.	8g/
8E\L	8EE\L	8E\L	4f#\	.	8a/	4ff#\	4ff#\	8a/
8D#\J	8DD#\J	8D#\J	.	.	8b/J	.	.	8b/J
=137	=137	=137	=137	=137	=137	=137	=137	=137
4E\	4EE\	4E\	4g\	8b\L]	8g/L	4b\	4b\	8g/L
.	.	.	.	8cc\	8a/	.	.	8a/
4BB/	4BBB/	4BB/	4f#\	8b\	8b/	4dd#\	4dd#\	8b/
.	.	.	.	8a\J	8g/J	.	.	8g/J
4C/	4CC/	4C/	4e\	8g\L	2e/	[2ee\	[2ee\	2e/
.	.	.	.	8b\	.	.	.	.
4GG/	4GGG/	4GG/	4b\	8ee\	.	.	.	.
.	.	.	.	8dd\J	.	.	.	.
=138	=138	=138	=138	=138	=138	=138	=138	=138
4AA/	4AAA/	4AA/	8a\L	8cc/L	1ff#\	2ee\]	2ee\]	1ff#\
.	.	.	8b\J	8b/	.	.	.	.
4FF#/	4FFF#/	4FF#/	4cc\	8a/	.	.	.	.
.	.	.	.	8g/J	.	.	.	.
4BB/	2BBB/	4BB/	8b\L	8f#/L	.	[2dd\	[2dd\	.
.	.	.	8cc\J	8e/	.	.	.	.
4BB/	.	4BB/	4dd\	8d/	.	.	.	.
.	.	.	.	8c/J	.	.	.	.
=139	=139	=139	=139	=139	=139	=139	=139	=139
4EE/	4EEE/	4EE/	8ee\L	4B/	2gg#\	2dd\]	2dd\]	2gg#\
.	.	.	8dd\	.	.	.	.	.
4E\	4EE\	4E\	8cc\	4e/	.	.	.	.
.	.	.	8b\J	.	.	.	.	.
4F\	4FF\	4F\	8a\L	4a/	[2aa\	2cc\	2cc\	[2aa\
.	.	.	8g\	.	.	.	.	.
4C/	4CC/	4C/	8f\	4cc\	.	.	.	.
.	.	.	8e\J	.	.	.	.	.
=140	=140	=140	=140	=140	=140	=140	=140	=140
4D\	4DD\	4D\	4d\	8ff\L	2aa\]	1bb\	1bb\	2aa\]
.	.	.	.	8ee\	.	.	.	.
4BB/	4BBB/	4BB/	4f\	8dd\	.	.	.	.
.	.	.	.	8cc\J	.	.	.	.
4E\	4EE\	4E\	4g\	8b/L	[2gg\	.	.	[2gg\
.	.	.	.	8a/	.	.	.	.
4EE/	4EEE/	4EE/	4b\	8g/	.	.	.	.
.	.	.	.	8f#/J	.	.	.	.
=141	=141	=141	=141	=141	=141	=141	=141	=141
4AA/	4AAA/	4AA/	8a\L	4e/	2gg\]	2ccc#\	2ccc#\	2gg\]
.	.	.	8g\	.	.	.	.	.
4A\	4AA\	4A\	8f#\	4a/	.	.	.	.
.	.	.	8e\J	.	.	.	.	.
4B\	4BB\	4B\	8d\L	4dd\	2ff#\	[2ddd\	[2ddd\	2ff#\
.	.	.	8c\	.	.	.	.	.
4F#\	4FF#\	4F#\	8B\	4ff#\	.	.	.	.
.	.	.	8A\J	.	.	.	.	.
=142	=142	=142	=142	=142	=142	=142	=142	=142
4G\	4GG\	4G\	4G/	8b/L	1ee\	2ddd\]	2ddd\]	1ee\
.	.	.	.	8a/	.	.	.	.
4E\	4EE\	4E\	4B/	8g/	.	.	.	.
.	.	.	.	8f#/J	.	.	.	.
4A\	4AA\	4A\	4c#\	8e/L	.	2ccc#\	2ccc#\	.
.	.	.	.	8f#/	.	.	.	.
4AA/	4AAA/	4AA/	4e\	8g#/	.	.	.	.
.	.	.	.	8a/J	.	.	.	.
=143	=143	=143	=143	=143	=143	=143	=143	=143
4GG#/	4GGG#/	4GG#/	8g#\L	4b/	2ee#\	2bb\	2bb\	2ee#\
.	.	.	8b\	.	.	.	.	.
4C#/	4CC#/	4C#/	8a\	4e#/	.	.	.	.
.	.	.	8g#\J	.	.	.	.	.
4D\	4DD\	4D\	8f#\L	4a/	[2ff#\	2aa\	2aa\	[2ff#\
.	.	.	8e\	.	.	.	.	.
4AA/	4AAA/	4AA/	8d\	4cc#\	.	.	.	.
.	.	.	8c#\J	.	.	.	.	.
=144	=144	=144	=144	=144	=144	=144	=144	=144
4BB/	4BBB/	4BB/	4B/	8dd\L	2ff#\]	1gg#\	1gg#\	2ff#\]
.	.	.	.	8cc#\	.	.	.	.
4GG#/	4GGG#/	4GG#/	4d\	8b\	.	.	.	.
.	.	.	.	8a\J	.	.	.	.
4C#/	2CC#/	4C#/	4e\	8g#/L	[2ee\	.	.	[2ee\
.	.	.	.	8f#/	.	.	.	.
4CC#/	.	4CC#/	4g#\	8e/	.	.	.	.
.	.	.	.	8d/J	.	.	.	.
=145	=145	=145	=145	=145	=145	=145	=145	=145
4FF#/	4FFF#/	4FF#/	8f#\L	4c#/	2ee\]	2aa#\	2aa#\	2ee\]
.	.	.	8e\	.	.	.	.	.
4F#\	4FF#\	4F#\	8d\	4f#/	.	.	.	.
.	.	.	8c#\J	.	.	.	.	.
4G\	4GG\	4G\	8B/L	4b\	2dd\	[2bb\	[2bb\	2dd\
.	.	.	8A/	.	.	.	.	.
4D\	4DD\	4D\	8G/	4dd\	.	.	.	.
.	.	.	8F#/J	.	.	.	.	.
=146	=146	=146	=146	=146	=146	=146	=146	=146
4E\	4EE\	4E\	4E/	8gg\L	[1cc#\	2bb\]	2bb\]	[1cc#\
.	.	.	.	8ff#\	.	.	.	.
4C#/	4CC#/	4C#/	2e\	8ee\	.	.	.	.
.	.	.	.	8dd\J	.	.	.	.
4F#\	4FF#\	4F#\	.	8cc#\L	.	4aa#\	4aa#\	.
.	.	.	.	8b\	.	.	.	.
4E\	4EE\	4E\	4c#\	8a#\	.	4ccc#\	4ccc#\	.
.	.	.	.	8cc#\J	.	.	.	.
=147	=147	=147	=147	=147	=147	=147	=147	=147
4D\	4DD\	4D\	8f#\L	4ff#\	2cc#\]	[1ff#\	[1ff#\	2cc#\]
.	.	.	8g\	.	.	.	.	.
4C#/	4CC#/	4C#/	8f#\	4a#/	.	.	.	.
.	.	.	8e\J	.	.	.	.	.
4D\	4DD\	4D\	8d\L	[2b\	4b\	.	.	4b\
.	.	.	8e\	.	.	.	.	.
4BB/	4BBB/	4BB/	8f#\	.	4dd\	.	.	4dd\
.	.	.	8d\J	.	.	.	.	.
=148	=148	=148	=148	=148	=148	=148	=148	=148
4E\	4EE\	4E\	2B/	8b\L]	4g#/	2ff#\]	2ff#\]	4g#/
.	.	.	.	8cc#\	.	.	.	.
4D\	4DD\	4D\	.	8b\	4dd\	.	.	4dd\
.	.	.	.	8a\J	.	.	.	.
4E\	4EE\	4E\	[2c#\	8g#/L	4cc#\	4ee\	4ee\	4cc#\
.	.	.	.	8a#/	.	.	.	.
4C#/	4CC#/	4C#/	.	8b/	4b\	4gg\	4gg\	4b\
.	.	.	.	8g#/J	.	.	.	.
=149	=149	=149	=149	=149	=149	=149	=149	=149
4F#\	4FF#\	4F#\	4c#\]	8a#/L	4a#/	4cc#\	4cc#\	4a#/
.	.	.	.	8g#/	.	.	.	.
4E\	4EE\	4E\	8d\L	8f#/	4b\	4gg\	4gg\	4b\
.	.	.	8e\J	8g#/J	.	.	.	.
4D\	4DD\	4D\	[2f#\	8a#\L	[2cc#\	4ff#\	4ff#\	[2cc#\
.	.	.	.	8b\	.	.	.	.
4C#/	4CC#/	4C#/	.	8cc#\	.	4ee\	4ee\	.
.	.	.	.	8a#\J	.	.	.	.
=150	=150	=150	=150	=150	=150	=150	=150	=150
4BB/	4BBB/	4BB/	8f#\L]	[1f#/	2cc#\]	4dd\	4dd\	2cc#\]
.	.	.	8g\	.	.	.	.	.
4C#/	4CC#/	4C#/	8f#\	.	.	4ee\	4ee\	.
.	.	.	8e\J	.	.	.	.	.
4D\	4DD\	4D\	8d\L	.	[2b\	4ff#\	4ff#\	[2b\
.	.	.	8c#\	.	.	.	.	.
4E\	4EE\	4E\	8B\	.	.	4gg\	4gg\	.
.	.	.	8c#\J	.	.	.	.	.
=151	=151	=151	=151	=151	=151	=151	=151	=151
4F#\	4FF#\	4F#\	8d\L	4f#/]	2b\]	2dd\	2dd\	2b\]
.	.	.	8e\	.	.	.	.	.
4E\	4EE\	4E\	8f#\	4B/	.	.	.	.
.	.	.	8g\J	.	.	.	.	.
4F#\	4FF#\	4F#\	8c#\L	2f#/	2a#/	2cc#\	2cc#\	2a#/
.	.	.	8d\	.	.	.	.	.
4FF#/	4FFF#/	4FF#/	8e\	.	.	.	.	.
.	.	.	8f#\J	.	.	.	.	.
=152	=152	=152	=152	=152	=152	=152	=152	=152
2BB/	2BBB/	2BB/	2d\	2f#/	2b\	2b\	2b\	8b\L
.	.	.	.	.	.	.	.	8bb\
.	.	.	.	.	.	.	.	8ff#\
.	.	.	.	.	.	.	.	8dd\J
2r	2r	2r	4r	4r	4r	[2dd\	[2bb\	8b\L
.	.	.	.	.	.	.	.	8ff#\
.	.	.	4B/	4dd\	4ff#\	.	.	8dd\
.	.	.	.	.	.	.	.	8b\J
=153	=153	=153	=153	=153	=153	=153	=153	=153
4r	4r	4r	2e\	2b\	4gg#\	4dd\]	4bb\]	4e/
4E\	4EE\	4E\	.	.	4bb\	8b\L	8gg#\L	4bb\
.	.	.	.	.	.	8cc\J	8aa\J	.
4D\	4DD\	4D\	4r	4r	4ee\	4dd\	4bb\	4ee\
4E\	4EE\	4E\	4e\	4b\	4gg#\	8cc\L	8aa\L	4gg#\
.	.	.	.	.	.	8b\J	8gg#\J	.
=154	=154	=154	=154	=154	=154	=154	=154	=154
2AA/	2AAA/	2AA/	2e\	2cc\	2aa\	2cc\	2aa\	8a\L
.	.	.	.	.	.	.	.	8aa\
.	.	.	.	.	.	.	.	8ee\
.	.	.	.	.	.	.	.	8cc\J
2r	2r	2r	4r	4r	4r	[2cc\	[2aa\	8a\L
.	.	.	.	.	.	.	.	8ee\
.	.	.	4A/	4cc\	4ee\	.	.	8cc\
.	.	.	.	.	.	.	.	8a\J
=155	=155	=155	=155	=155	=155	=155	=155	=155
4r	4r	4r	2d\	2a/	4ff#\	4cc\]	4aa\]	4d/
4D/	4DD/	4D/	.	.	4aa\	8a/L	8ff#\L	4aa\
.	.	.	.	.	.	8b/J	8gg\J	.
4C/	4CC/	4C/	4r	4r	4dd\	4cc\	4aa\	4dd\
4D/	4DD/	4D/	4d\	4a/	4ff#\	8b/L	8gg\L	4ff#\
.	.	.	.	.	.	8a/J	8ff#\J	.
=156	=156	=156	=156	=156	=156	=156	=156	=156
2GG/	2GGG/	2GG/	2d\	2b\	2gg\	[1b\	[1gg\	8g\L
.	.	.	.	.	.	.	.	8gg\
.	.	.	.	.	.	.	.	8dd\
.	.	.	.	.	.	.	.	8b\J
2r	2r	2r	4r	4r	4r	.	.	8g\L
.	.	.	.	.	.	.	.	8dd\
.	.	.	4g\	4b\	4dd\	.	.	8b\
.	.	.	.	.	.	.	.	8g\J
=157	=157	=157	=157	=157	=157	=157	=157	=157
1r	1r	1r	4e\	4b\	4gg\	1b\]	1gg\_	8e/L
.	.	.	.	.	.	.	.	8ee/
.	.	.	4g\	4ee\	4bb\	.	.	8b/
.	.	.	.	.	.	.	.	8g/J
.	.	.	4e\	4b\	4gg\	.	.	8e/L
.	.	.	.	.	.	.	.	8b/
.	.	.	4g\	4b\	4ee\	.	.	8g/
.	.	.	.	.	.	.	.	8e/J
=158	=158	=158	=158	=158	=158	=158	=158	=158
4r	4r	4r	4c#\	4ee\	4aa\	4a/	4gg\]	8c#/L
.	.	.	.	.	.	.	.	8a/
4AA/	4AAA/	4AA/	4a\	4cc#\	4ee\	8cc#\L	8ee\L	8e/
.	.	.	.	.	.	8dd\J	8ff#\J	8c#/J
4GG/	4GGG/	4GG/	4e\	4cc#\	4a/	4ee\	4gg\	4A/
4AA/	4AAA/	4AA/	4e\	4a/	4cc#\	8dd\L	8ff#\L	4aa\
.	.	.	.	.	.	8cc#\J	8ee\J	.
=159	=159	=159	=159	=159	=159	=159	=159	=159
2DD/	2DDD/	4DD/	2d\	2a/	2dd\	2dd\	8ff#\L	4ff#\
.	.	.	.	.	.	.	8dd\	.
.	.	4D\	.	.	.	.	8ee\	4dd\
.	.	.	.	.	.	.	8ff#\J	.
8r	2r	4E\	2r	2r	2r	8r	[2gg\	2r
8E\L	.	.	.	.	.	8g/L	.	.
8F#\	.	4GG/	.	.	.	8a/	.	.
8G\J	.	.	.	.	.	8b/J	.	.
=160	=160	=160	=160	=160	=160	=160	=160	=160
8A\L	1r	4AA/	1r	1r	1r	[2cc\	8gg\L]	1r
8B\	.	.	.	.	.	.	8ee\	.
8A\	.	4E\	.	.	.	.	8ff#\	.
8G\J	.	.	.	.	.	.	8gg\J	.
4F#\	.	4F#\	.	.	.	8cc\L]	4aa\	.
.	.	.	.	.	.	8a\	.	.
8G\L	.	4AA/	.	.	.	8b\	8gg\L	.
8A\J	.	.	.	.	.	8cc\J	8ff#\J	.
=161	=161	=161	=161	=161	=161	=161	=161	=161
8B\L	1r	4BB/	1r	1r	1r	4dd\	4gg\	1r
8A\	.	.	.	.	.	.	.	.
8G\	.	4GG/	.	.	.	8cc\L	4dd\	.
8F#\J	.	.	.	.	.	8b\J	.	.
8E\L	.	4C/	.	.	.	4cc\	4ee\	.
8D\	.	.	.	.	.	.	.	.
8C\	.	4E\	.	.	.	4gg\	4b\	.
8BB\J	.	.	.	.	.	.	.	.
=162	=162	=162	=162	=162	=162	=162	=162	=162
8AA/L	1r	4AA/	1r	1r	1r	4aa\	8cc\L	1r
8G/	.	.	.	.	.	.	8a\	.
8F#/	.	4A\	.	.	.	4ee\	8b\	.
8E/J	.	.	.	.	.	.	8cc\J	.
8D/L	.	4d\	.	.	.	8ff#\L	8dd\L	.
8C/	.	.	.	.	.	8dd\	8ee\	.
8BB/	.	4D\	.	.	.	8ee\	8dd\	.
8AA/J	.	.	.	.	.	8ff#\J	8cc\J	.
=163	=163	=163	=163	=163	=163	=163	=163	=163
2GG/	1r	8GG\L	1r	1r	1r	8gg\L	8b\L	1r
.	.	8d\	.	.	.	8ff\	8gg\	.
.	.	8c\	.	.	.	8ee\	8aa\	.
.	.	8B\J	.	.	.	8dd\J	8bb\J	.
8r	.	4A\	.	.	.	8ee\L	[2ccc\	.
8A\L	.	.	.	.	.	8cc\	.	.
8B\	.	4C/	.	.	.	8dd\	.	.
8c\J	.	.	.	.	.	8ee\J	.	.
=164	=164	=164	=164	=164	=164	=164	=164	=164
8d\L	1r	4D\	1r	1r	1r	[2ff\	8ccc\L]	1r
8e\	.	.	.	.	.	.	8aa\	.
8d\	.	4A\	.	.	.	.	8bb\	.
8c\J	.	.	.	.	.	.	8ccc\J	.
4B\	.	4B\	.	.	.	8ff\L]	4ddd\	.
.	.	.	.	.	.	8dd\	.	.
8c\L	.	4D\	.	.	.	8ee\	8ccc\L	.
8d\J	.	.	.	.	.	8ff\J	8bb\J	.
=165	=165	=165	=165	=165	=165	=165	=165	=165
8e\L	1r	4E\	1r	1r	1r	4gg\	4ccc\	1r
8d\	.	.	.	.	.	.	.	.
8c\	.	4C/	.	.	.	8ff\L	4gg\	.
8B\J	.	.	.	.	.	8ee\J	.	.
8A\L	.	4F\	.	.	.	4ff\	4aa\	.
8G\	.	.	.	.	.	.	.	.
8F\	.	4A\	.	.	.	4cc\	4ee\	.
8E\J	.	.	.	.	.	.	.	.
=166	=166	=166	=166	=166	=166	=166	=166	=166
8D\L	1r	4D\	1r	1r	1r	4dd\	8ff\L	1r
8c\	.	.	.	.	.	.	8dd\	.
8B\	.	4DD/	.	.	.	4a/	8ee\	.
8A\J	.	.	.	.	.	.	8ff\J	.
8G\L	.	8GG/L	.	.	.	8b/L	8gg\L	.
8F\	.	8FF/J	.	.	.	8g/	8aa\	.
8E\	.	4GG/	.	.	.	8a/	8gg\	.
8D\J	.	.	.	.	.	8b/J	8ff\J	.
=167	=167	=167	=167	=167	=167	=167	=167	=167
2C/	1r	2C/	1r	1r	1r	8cc\L	8ee\L	1r
.	.	.	.	.	.	8ee\	8gg\	.
.	.	.	.	.	.	8dd\	8ff\	.
.	.	.	.	.	.	8cc\J	8ee\J	.
[2G\	.	[2G\	.	.	.	8b\L	8dd\L	.
.	.	.	.	.	.	8dd\	8ff\	.
.	.	.	.	.	.	8cc\	8ee\	.
.	.	.	.	.	.	8b\J	8dd\J	.
=168	=168	=168	=168	=168	=168	=168	=168	=168
4G\]	1r	4G\]	1r	1r	1r	4a/	8cc\L	1r
.	.	.	.	.	.	.	8b\	.
8F#\L	.	8F#\L	.	.	.	8dd\L	8a\	.
8G\J	.	8G\J	.	.	.	8ee\J	8b\J	.
4A\	.	4A\	.	.	.	8ff#\L	8cc\L	.
.	.	.	.	.	.	8gg\J	8b\	.
8G\L	.	8G\L	.	.	.	[4aa\	8cc\	.
8F#\J	.	8F#\J	.	.	.	.	8a\J	.
=169	=169	=169	=169	=169	=169	=169	=169	=169
4G\	1r	4G\	1r	1r	1r	8aa\L]	[2b\	1r
.	.	.	.	.	.	8gg\	.	.
4D\	.	4D\	.	.	.	8aa\	.	.
.	.	.	.	.	.	8ff#\J	.	.
4E\	.	4E\	.	.	.	[2gg\	8b\L]	.
.	.	.	.	.	.	.	8cc\	.
4BB/	.	4BB/	.	.	.	.	8dd\	.
.	.	.	.	.	.	.	8ee\J	.
=170	=170	=170	=170	=170	=170	=170	=170	=170
4C#/	1r	4C#/	1r	1r	1r	8gg\L]	[2a/	1r
.	.	.	.	.	.	8ff\	.	.
8BB/L	.	8BB/L	.	.	.	8gg\	.	.
8C#/J	.	8C#/J	.	.	.	8ee\J	.	.
4D/	.	4D/	.	.	.	[2ff\	8a\L]	.
.	.	.	.	.	.	.	8b\	.
4AA/	.	4AA/	.	.	.	.	8cc\	.
.	.	.	.	.	.	.	8dd\J	.
=171	=171	=171	=171	=171	=171	=171	=171	=171
8BB/L	1r	4BB/	1r	1r	1r	8ff\L]	2g/	1r
8GG/	.	.	.	.	.	8ee\	.	.
8AA/	.	4GG/	.	.	.	8ff\	.	.
8BB/J	.	.	.	.	.	8dd\J	.	.
8C/L	.	4C/	.	.	.	8ee\L	[2gg\	.
8D/	.	.	.	.	.	8dd\	.	.
8E/	.	4EE/	.	.	.	8cc\	.	.
8C/J	.	.	.	.	.	8b\J	.	.
=172	=172	=172	=172	=172	=172	=172	=172	=172
4F\	1r	4FF/	1r	1r	1r	4a/	8gg\L]	1r
.	.	.	.	.	.	.	8ff\	.
4G\	.	4GG/	.	.	.	8cc\L	8ee\	.
.	.	.	.	.	.	8b\J	8gg\J	.
4A\	.	4AA/	.	.	.	4cc\	8ff\L	.
.	.	.	.	.	.	.	8ee\	.
4F\	.	4FF/	.	.	.	[4ff\	8dd\	.
.	.	.	.	.	.	.	8cc\J	.
=173	=173	=173	=173	=173	=173	=173	=173	=173
4G\	1r	4GG/	1r	1r	1r	8ff\L]	4b\	1r
.	.	.	.	.	.	8ee\	.	.
4GG/	.	4G\	.	.	.	8dd\	4gg\	.
.	.	.	.	.	.	8ff\J	.	.
4AA/	.	4A\	.	.	.	8ee\L	8cc\L	.
.	.	.	.	.	.	8dd\	8dd\	.
4EE/	.	4E\	.	.	.	8cc\	8ee\	.
.	.	.	.	.	.	8ee\J	8cc\J	.
=174	=174	=174	=174	=174	=174	=174	=174	=174
4FF/	1r	4F\	1r	1r	1r	8dd\L	8a\L	1r
.	.	.	.	.	.	8ff\	8b\	.
4DD/	.	4D\	.	.	.	8ee\	8cc\	.
.	.	.	.	.	.	8dd\J	8dd\J	.
4GG/	.	4G\	.	.	.	4.ddT\	4.bt\	.
4G\	.	4GG/	.	.	.	.	.	.
.	.	.	.	.	.	8cc\	8cc\	.
=175	=175	=175	=175	=175	=175	=175	=175	=175
2C/	2CC/	2C/	8r	2ee\	2cc\	2cc\	2cc\	2cc\
.	.	.	8g\L	.	.	.	.	.
.	.	.	8f\	.	.	.	.	.
.	.	.	8g\J	.	.	.	.	.
8r	8r	8r	[2a\	8r	[2ccc\	2r	2r	[2ccc\
8C/L	8CC/L	8C/L	.	8ee\L	.	.	.	.
8BB/	8BBB/	8BB/	.	8dd\	.	.	.	.
8C/J	8CC/J	8C/J	.	8ee\J	.	.	.	.
=176	=176	=176	=176	=176	=176	=176	=176	=176
8D\L	8DD\L	8D\L	4a\]	8ff\L	4ccc\]	1r	1r	4ccc\]
8C\	8CC\	8C\	.	8gg\	.	.	.	.
8D\	8DD\	8D\	4d\	8ff\	8bb\L	.	.	8bb\L
8E\J	8EE\J	8E\J	.	8ee\J	8ccc\J	.	.	8ccc\J
8F\L	8FF\L	8F\L	[2g\	4dd\	4ddd\	.	.	4ddd\
8E\	8EE\	8E\	.	.	.	.	.	.
8F\	8FF\	8F\	.	[4gg\	8ccc\L	.	.	8ccc\L
8D\J	8DD\J	8D\J	.	.	8bb\J	.	.	8bb\J
=177	=177	=177	=177	=177	=177	=177	=177	=177
4E\	4EE\	4E\	8g\L]	8gg\L]	4ccc\	1r	1r	4ccc\
.	.	.	8f\	8aa\	.	.	.	.
4C/	4CC/	4C/	8e\	8gg\	4gg\	.	.	4gg\
.	.	.	8d\J	8ff\J	.	.	.	.
[2c\	[2C\	[2c\	8c/L	8ee\L	4aa\	.	.	4aa\
.	.	.	8B/J	8dd\	.	.	.	.
.	.	.	4A/	8cc\	4ee\	.	.	4ee\
.	.	.	.	8b\J	.	.	.	.
=178	=178	=178	=178	=178	=178	=178	=178	=178
2c\]	2C\]	2c\]	4d\	8a/L	4ff\	1r	1r	4ff\
.	.	.	.	8g/	.	.	.	.
.	.	.	4a\	8f/	4dd\	.	.	4dd\
.	.	.	.	8e/J	.	.	.	.
2B\	2BB\	2B\	[2g\	8d/L	4gg\	.	.	4gg\
.	.	.	.	8e/	.	.	.	.
.	.	.	.	8f/	4dd\	.	.	4dd\
.	.	.	.	8g/J	.	.	.	.
=179	=179	=179	=179	=179	=179	=179	=179	=179
4c\	4C\	4c\	2g\]	4c/	[2ee\	1r	2gg\	8ee/L
.	.	.	.	.	.	.	.	8e/
4B\	4BB\	4B\	.	4e/	.	.	.	8f/
.	.	.	.	.	.	.	.	8g/J
4A\	4AA\	4A\	2c\	[2a/	8ee\L]	.	[2ccc\	8a/L
.	.	.	.	.	8dd\	.	.	8b/
4G\	4GG\	4G\	.	.	8ee\	.	.	8cc/
.	.	.	.	.	8cc\J	.	.	8e/J
=180	=180	=180	=180	=180	=180	=180	=180	=180
4F\	4FF\	4F\	2f\	2a/]	[2dd\	1r	4ccc\]	8d/L
.	.	.	.	.	.	.	.	8f/
4D\	4DD\	4D\	.	.	.	.	8bb\L	8g/
.	.	.	.	.	.	.	8ccc\J	8a/J
4G\	4GG\	4G\	2B/	[2g/	8dd\L]	.	4ddd\	8b/L
.	.	.	.	.	8ee\	.	.	8cc/
4GG/	4GGG/	4GG/	.	.	8ff\	.	8ccc\L	8dd/
.	.	.	.	.	8dd\J	.	8bb\J	8f/J
=181	=181	=181	=181	=181	=181	=181	=181	=181
4C/	4CC/	4C/	4G/	4g/]	4ee\	2gg\	4ccc\	8e/L
.	.	.	.	.	.	.	.	8g/
4E\	4EE\	4E\	4g\	4cc\	4gg\	.	4gg\	8a/
.	.	.	.	.	.	.	.	8b/J
4AA/	4AAA/	4AA/	4e\	4ee\	4cc\	[2ccc\	4aa\	8cc\L
.	.	.	.	.	.	.	.	8dd\
4C/	4CC/	4C/	4c\	4e/	4aa\	.	4ee\	8ee\
.	.	.	.	.	.	.	.	8b-\J
=182	=182	=182	=182	=182	=182	=182	=182	=182
2DD/	2DDD/	2DD/	2A/	2a/	2ff\	4ccc\]	4ff\	8a\L
.	.	.	.	.	.	.	.	8cc\
.	.	.	.	.	.	8bb\L	4dd\	8dd\
.	.	.	.	.	.	8ccc\J	.	8ee\J
4r	4r	4r	4r	4r	4r	4ddd\	4gg\	8ff\L
.	.	.	.	.	.	.	.	8aa\
4GG/	4GGG/	4GG/	4G/	4b\	4dd\	8ccc\L	4dd\	8gg\
.	.	.	.	.	.	8bb\J	.	8ff\J
=183	=183	=183	=183	=183	=183	=183	=183	=183
2CC/	2CC/	2CC/	2G/	2g/	2cc\	8ccc\L	[1ee\	8ee\L
.	.	.	.	.	.	8bb\	.	8g\
.	.	.	.	.	.	8ccc\	.	8a\
.	.	.	.	.	.	8ddd\J	.	8b\J
2r	2r	2r	2r	2r	2r	8eee\L	.	8cc\L
.	.	.	.	.	.	8ddd\	.	8dd\
.	.	.	.	.	.	8ccc\	.	8ee\
.	.	.	.	.	.	8bb\J	.	8g\J
=184	=184	=184	=184	=184	=184	=184	=184	=184
1r	1r	1r	1r	1r	1r	4aa\	1ee\]	8f#/L
.	.	.	.	.	.	.	.	8ee/
.	.	.	.	.	.	4ccc\	.	8cc/
.	.	.	.	.	.	.	.	8a/J
.	.	.	.	.	.	4aa\	.	8f#/L
.	.	.	.	.	.	.	.	8cc/
.	.	.	.	.	.	4ff#\	.	8a/
.	.	.	.	.	.	.	.	8f#/J
=185	=185	=185	=185	=185	=185	=185	=185	=185
1r	1r	1r	1r	1r	1r	8r	[1dd\	8B/L
.	.	.	.	.	.	8aa\L	.	8f#/
.	.	.	.	.	.	8bb\	.	8g/
.	.	.	.	.	.	8ccc\J	.	8a/J
.	.	.	.	.	.	8ddd\L	.	8b/L
.	.	.	.	.	.	8ccc\	.	8cc/
.	.	.	.	.	.	8bb\	.	8dd/
.	.	.	.	.	.	8aa\J	.	8f#/J
=186	=186	=186	=186	=186	=186	=186	=186	=186
1r	1r	1r	1r	1r	1r	4gg\	1dd\]	8e/L
.	.	.	.	.	.	.	.	8dd/
.	.	.	.	.	.	4bb\	.	8b/
.	.	.	.	.	.	.	.	8g/J
.	.	.	.	.	.	4gg\	.	8e/L
.	.	.	.	.	.	.	.	8b/
.	.	.	.	.	.	4ee\	.	8g/
.	.	.	.	.	.	.	.	8e/J
=187	=187	=187	=187	=187	=187	=187	=187	=187
1r	1r	1r	1r	1r	1r	8r	[1cc\	8A/L
.	.	.	.	.	.	8gg\L	.	8e/
.	.	.	.	.	.	8aa\	.	8f#/
.	.	.	.	.	.	8bb\J	.	8g/J
.	.	.	.	.	.	8ccc\L	.	8a/L
.	.	.	.	.	.	8bb\	.	8b/
.	.	.	.	.	.	8aa\	.	8cc/
.	.	.	.	.	.	8gg\J	.	8e/J
=188	=188	=188	=188	=188	=188	=188	=188	=188
1r	1r	1r	1r	1r	1r	4ff#\	1cc\]	8d/L
.	.	.	.	.	.	.	.	8cc/
.	.	.	.	.	.	4aa\	.	8a/
.	.	.	.	.	.	.	.	8f#/J
.	.	.	.	.	.	4ff#\	.	8d/L
.	.	.	.	.	.	.	.	8a/
.	.	.	.	.	.	4dd\	.	8f#/
.	.	.	.	.	.	.	.	8d/J
=189	=189	=189	=189	=189	=189	=189	=189	=189
2GG/	2GGG/	2GG/	8r	2b\	2dd\	2gg\	2b\	2dd\
.	.	.	8d\L	.	.	.	.	.
.	.	.	8c\	.	.	.	.	.
.	.	.	8d\J	.	.	.	.	.
8r	8r	8r	[2e\	8r	[2gg\	2r	2r	[2gg\
8GG/L	8GGG/L	8GG/L	.	8b/L	.	.	.	.
8FF#/	8FFF#/	8FF#/	.	8a/	.	.	.	.
8GG/J	8GGG/J	8GG/J	.	8b/J	.	.	.	.
=190	=190	=190	=190	=190	=190	=190	=190	=190
8AA/L	8AAA/L	8AA/L	4e\]	8cc\L	4gg\]	1r	1r	4gg\]
8GG/	8GGG/	8GG/	.	8dd\	.	.	.	.
8AA/	8AAA/	8AA/	4A/	8cc\	8ff#\L	.	.	8ff#\L
8BB/J	8BBB/J	8BB/J	.	8b\J	8gg\J	.	.	8gg\J
8C/L	8CC/L	8C/L	[2d\	4a/	4aa\	.	.	4aa\
8BB/	8BBB/	8BB/	.	.	.	.	.	.
8C/	8CC/	8C/	.	[4dd\	8gg\L	.	.	8gg\L
8AA/J	8AAA/J	8AA/J	.	.	8ff#\J	.	.	8ff#\J
=191	=191	=191	=191	=191	=191	=191	=191	=191
4BB/	4BBB/	4BB/	8d\L]	8dd\L]	4gg\	1r	1r	4gg\
.	.	.	8cc\	8ee\	.	.	.	.
4GG/	4GGG/	4GG/	8b\	8dd\	4dd\	.	.	4dd\
.	.	.	8a\J	8cc\J	.	.	.	.
[2G\	[2GG\	[2G\	8g\L	8b/L	4ee\	.	.	4ee\
.	.	.	8f#\J	8a/	.	.	.	.
.	.	.	4e\	8g/	4b\	.	.	4b\
.	.	.	.	8f#/J	.	.	.	.
=192	=192	=192	=192	=192	=192	=192	=192	=192
2G\]	2GG\]	2G\]	4a\	8e/L	4cc\	1r	1r	4cc\
.	.	.	.	8d/	.	.	.	.
.	.	.	4e\	8c/	4a/	.	.	4a/
.	.	.	.	8B/J	.	.	.	.
2F#\	2FF#\	2F#\	[2d\	8A/L	4dd\	.	.	4dd\
.	.	.	.	8B/	.	.	.	.
.	.	.	.	8c/	4a/	.	.	4a/
.	.	.	.	8d/J	.	.	.	.
=193	=193	=193	=193	=193	=193	=193	=193	=193
4G\	4GG\	4G\	2d\]	4G/	[2b\	2dd\	1r	8b/L
.	.	.	.	.	.	.	.	8B/
4F#\	4FF#\	4F#\	.	4B/	.	.	.	8c/
.	.	.	.	.	.	.	.	8d/J
4E\	4EE\	4E\	2G/	[2e/	8b/L]	[2gg\	.	8e/L
.	.	.	.	.	8a/	.	.	8f#/
4D\	4DD\	4D\	.	.	8b/	.	.	8g/
.	.	.	.	.	8g/J	.	.	8B/J
=194	=194	=194	=194	=194	=194	=194	=194	=194
4C/	4CC/	4C/	2c\	2e/]	[2a/	4gg\]	1r	8A/L
.	.	.	.	.	.	.	.	8c/
4AA/	4AAA/	4AA/	.	.	.	8ff#\L	.	8d/
.	.	.	.	.	.	8gg\J	.	8e/J
4D\	4DD\	4D\	2F#/	[2d/	8a/L]	4aa\	.	8f#/L
.	.	.	.	.	8b/	.	.	8g/
4DD/	4DDD/	4DD/	.	.	8cc/	8gg\L	.	8a/
.	.	.	.	.	8a/J	8ff#\J	.	8c/J
=195	=195	=195	=195	=195	=195	=195	=195	=195
4GG/	4GGG/	4GG/	4D/	4d/]	4b\	4gg\	2dd\	8B/L
.	.	.	.	.	.	.	.	8d/
4BB/	4BBB/	4BB/	4d\	4g/	4dd\	4dd\	.	8e/
.	.	.	.	.	.	.	.	8f#/J
4EE/	4EEE/	4EE/	4B/	4b/	4g/	4ee\	[2gg\	8g/L
.	.	.	.	.	.	.	.	8a/
4GG/	4GGG/	4GG/	4G/	4B/	4ee\	4b\	.	8b/
.	.	.	.	.	.	.	.	8f/J
=196	=196	=196	=196	=196	=196	=196	=196	=196
2AA/	2AAA/	2AA/	2E/	2e/	2cc\	4cc\	4gg\]	8e/L
.	.	.	.	.	.	.	.	8g/
.	.	.	.	.	.	4a/	8ff#\L	8a/
.	.	.	.	.	.	.	8gg\J	8b/J
4r	4r	4r	4r	4r	4r	4dd\	4aa\	8cc\L
.	.	.	.	.	.	.	.	8ee\
4DD/	4DDD/	4DD/	4D/	4f#/	4a/	4a/	8gg\L	8dd\
.	.	.	.	.	.	.	8ff#\J	8cc\J
=197	=197	=197	=197	=197	=197	=197	=197	=197
2GG/	2GGG/	2GG/	2D/	2d/	2g/	2b\	8gg\L	8b\L
.	.	.	.	.	.	.	8ff#\	8dd\
.	.	.	.	.	.	.	8gg\	8ee\
.	.	.	.	.	.	.	8aa\J	8ff#\J
2r	2r	2r	2r	2r	2r	[2bb\	8bb\L	8gg\L
.	.	.	.	.	.	.	8aa\	8aa\
.	.	.	.	.	.	.	8gg\	8bb\
.	.	.	.	.	.	.	8ff#\J	8dd\J
=198	=198	=198	=198	=198	=198	=198	=198	=198
1r	1r	1r	1r	1r	1r	1bb\]	4ee\	8cc#\L
.	.	.	.	.	.	.	.	8bb\
.	.	.	.	.	.	.	4gg\	8gg\
.	.	.	.	.	.	.	.	8ee\J
.	.	.	.	.	.	.	4ee\	8cc#\L
.	.	.	.	.	.	.	.	8gg\
.	.	.	.	.	.	.	4cc#\	8ee\
.	.	.	.	.	.	.	.	8cc#\J
=199	=199	=199	=199	=199	=199	=199	=199	=199
1r	1r	1r	1r	1r	1r	[1aa\	8r	8f#\L
.	.	.	.	.	.	.	8ee\L	8cc#\
.	.	.	.	.	.	.	8ff#\	8dd\
.	.	.	.	.	.	.	8gg\J	8ee\J
.	.	.	.	.	.	.	8aa\L	8ff#\L
.	.	.	.	.	.	.	8gg\	8gg\
.	.	.	.	.	.	.	8ff#\	8aa\
.	.	.	.	.	.	.	8ee\J	8cc#\J
=200	=200	=200	=200	=200	=200	=200	=200	=200
1r	1r	1r	1r	1r	1r	1aa\]	4dd\	8b\L
.	.	.	.	.	.	.	.	8aa\
.	.	.	.	.	.	.	4ff#\	8ff#\
.	.	.	.	.	.	.	.	8dd\J
.	.	.	.	.	.	.	4dd\	8b\L
.	.	.	.	.	.	.	.	8ff#\
.	.	.	.	.	.	.	4b\	8dd\
.	.	.	.	.	.	.	.	8b\J
=201	=201	=201	=201	=201	=201	=201	=201	=201
1r	1r	1r	1r	1r	1r	[1gg\	8r	8e\L
.	.	.	.	.	.	.	8dd\L	8b\
.	.	.	.	.	.	.	8ee\	8cc#\
.	.	.	.	.	.	.	8ff#\J	8dd\J
.	.	.	.	.	.	.	8gg\L	8ee\L
.	.	.	.	.	.	.	8ff#\	8ff#\
.	.	.	.	.	.	.	8ee\	8gg\
.	.	.	.	.	.	.	8dd\J	8b\J
=202	=202	=202	=202	=202	=202	=202	=202	=202
1r	1r	1r	1r	1r	1r	1gg\]	4cc#\	8a\L
.	.	.	.	.	.	.	.	8gg\
.	.	.	.	.	.	.	4ee\	8ee\
.	.	.	.	.	.	.	.	8cc#\J
.	.	.	.	.	.	.	4cc#\	8a\L
.	.	.	.	.	.	.	.	8ee\
.	.	.	.	.	.	.	4a/	8cc#\
.	.	.	.	.	.	.	.	8a\J
=203	=203	=203	=203	=203	=203	=203	=203	=203
1r	1r	1r	1r	1r	4r	2ff#\	8r	4d/
.	.	.	.	.	.	.	8aa\L	.
.	.	.	.	.	4aa\	.	8bb\	4aa\
.	.	.	.	.	.	.	8ccc\J	.
.	.	.	.	.	4bb\	[2ddd\	[2ddd\	4bb\
.	.	.	.	.	4ff#\	.	.	4ff#\
=204	=204	=204	=204	=204	=204	=204	=204	=204
1r	1r	1r	1r	1r	4gg\	2ddd\]	2ddd\]	4gg\
.	.	.	.	.	4ee\	.	.	4ee\
.	.	.	.	.	4aa\	[2ccc\	[2ccc\	4aa\
.	.	.	.	.	4ee\	.	.	4ee\
=205	=205	=205	=205	=205	=205	=205	=205	=205
1r	1r	1r	1r	4r	4ff#\	2ccc\]	2ccc\]	4ff#\
.	.	.	.	4dd\	4dd\	.	.	4dd\
.	.	.	.	4ee\	[2gg\	2bb\	2bb\	[2gg\
.	.	.	.	4b\	.	.	.	.
=206	=206	=206	=206	=206	=206	=206	=206	=206
1r	1r	1r	1r	4cc\	2gg\]	[1aa\	[1aa\	2gg\]
.	.	.	.	4a/	.	.	.	.
.	.	.	.	4dd\	2ff#\	.	.	2ff#\
.	.	.	.	4a/	.	.	.	.
=207	=207	=207	=207	=207	=207	=207	=207	=207
2GG/	2GGG/	2GG/	4r	8b\L	1bb\	2aa\]	2aa\]	1bb\
.	.	.	.	8dd\	.	.	.	.
.	.	.	4d\	8ee\	.	.	.	.
.	.	.	.	8ff#\J	.	.	.	.
[2G\	[2GG\	[2G\	4e\	8gg\L	.	2gg\	2gg\	.
.	.	.	.	8ff#\	.	.	.	.
.	.	.	4B/	8ee\	.	.	.	.
.	.	.	.	8dd\J	.	.	.	.
=208	=208	=208	=208	=208	=208	=208	=208	=208
4G\]	4GG\]	4G\]	4c/	8ee\L	[1aa\	1ccc\	1ccc\	[1aa\
.	.	.	.	8cc\	.	.	.	.
8F#\L	8FF#\L	8F#\L	8A/L	8dd\	.	.	.	.
8G\J	8GG\J	8G\J	8B/J	8ee\J	.	.	.	.
4A\	4AA\	4A\	4c/	8ff#\L	.	.	.	.
.	.	.	.	8gg\	.	.	.	.
8G\L	8GG\L	8G\L	4A/	8aa\	.	.	.	.
8F#\J	8FF#\J	8F#\J	.	8ff#\J	.	.	.	.
=209	=209	=209	=209	=209	=209	=209	=209	=209
4G\	4GG\	4G\	8B\L	4dd\	2aa\]	1bb\	1bb\	2aa\]
.	.	.	8d\	.	.	.	.	.
4D\	4DD\	4D\	8e\	4b\	.	.	.	.
.	.	.	8f#\J	.	.	.	.	.
4E\	4EE\	4E\	8g\L	4ee\	[2gg\	.	.	[2gg\
.	.	.	8a\	.	.	.	.	.
4BB/	4BBB/	4BB/	8b\	4dd\	.	.	.	.
.	.	.	8g\J	.	.	.	.	.
=210	=210	=210	=210	=210	=210	=210	=210	=210
4C/	4CC/	4C/	8e\L	4ee\	2gg\]	1aa\	1aa\	2gg\]
.	.	.	8c\	.	.	.	.	.
4AA/	4AAA/	4AA/	8d\	8cc\L	.	.	.	.
.	.	.	8e\J	8b\J	.	.	.	.
4D/	4DD/	4D/	8f#\L	4a/	[2ff#\	.	.	[2ff#\
.	.	.	8g\	.	.	.	.	.
4AA/	4AAA/	4AA/	8a\	4cc\	.	.	.	.
.	.	.	8f#\J	.	.	.	.	.
=211	=211	=211	=211	=211	=211	=211	=211	=211
4BB/	4BBB/	4BB/	2d\	8dd\L	2ff#\]	2gg\	2gg\	2ff#\]
.	.	.	.	8g\	.	.	.	.
4G\	4GG\	4G\	.	8a\	.	.	.	.
.	.	.	.	8b\J	.	.	.	.
4A\	4AA\	4A\	4A/	8cc\L	2ee\	[2ccc\	[2ccc\	2ee\
.	.	.	.	8dd\	.	.	.	.
4E\	4EE\	4E\	4G/	8ee\	.	.	.	.
.	.	.	.	8cc\J	.	.	.	.
=212	=212	=212	=212	=212	=212	=212	=212	=212
4F#\	4FF#\	4F#\	8A/L	8a/L	1dd\	2ccc\]	2ccc\]	1dd\
.	.	.	8c/	8f#/	.	.	.	.
4D\	4DD\	4D\	8B/	8g#/	.	.	.	.
.	.	.	8A/J	8a/J	.	.	.	.
4G#\	4GG#\	4G#\	[2e\	8b/L	.	[2bb\	[2bb\	.
.	.	.	.	8g#/	.	.	.	.
4E\	4EE\	4E\	.	8a/	.	.	.	.
.	.	.	.	8b/J	.	.	.	.
=213	=213	=213	=213	=213	=213	=213	=213	=213
4A\	4AA\	4A\	4e\]	8cc/L	1cc\	2bb\]	2bb\]	1cc\
.	.	.	.	8e/	.	.	.	.
4E\	4EE\	4E\	4d\	8f#/	.	.	.	.
.	.	.	.	8g#/J	.	.	.	.
4F\	4FF\	4F\	8c\L	8a/L	.	[2aa\	[2aa\	.
.	.	.	8d\	8b/	.	.	.	.
4C/	4CC/	4C/	8e\	8cc/	.	.	.	.
.	.	.	8c\J	8a/J	.	.	.	.
=214	=214	=214	=214	=214	=214	=214	=214	=214
4D\	4DD\	4D\	4f\	8f/L	1b\	2aa\]	2aa\]	1b\
.	.	.	.	8d/	.	.	.	.
4BB/	4BBB/	4BB/	4d\	8e/	.	.	.	.
.	.	.	.	8f/J	.	.	.	.
4E\	4EE\	4E\	8B\L	8g/L	.	[2gg\	[2gg\	.
.	.	.	8c\	8a/	.	.	.	.
4BB/	4BBB/	4BB/	8d\	8b/	.	.	.	.
.	.	.	8B\J	8g/J	.	.	.	.
=215	=215	=215	=215	=215	=215	=215	=215	=215
4C#/	4CC#/	4C#/	8e\L	8e/L	2a/	2gg\]	2gg\]	2a/
.	.	.	8A\	8g/	.	.	.	.
4A\	4AA\	4A\	8B\	8f#/	.	.	.	.
.	.	.	8c#\J	8e/J	.	.	.	.
4B\	4BB\	4B\	8d\L	4d/	[2dd\	2ff#\	2ff#\	[2dd\
.	.	.	8e\	.	.	.	.	.
4F#\	4FF#\	4F#\	8f#\	4a/	.	.	.	.
.	.	.	8d\J	.	.	.	.	.
=216	=216	=216	=216	=216	=216	=216	=216	=216
4G\	4GG\	4G\	8B/L	4b/	2dd\]	1ee\	1ee\	2dd\]
.	.	.	8G/	.	.	.	.	.
4E\	4EE\	4E\	8A/	4g/	.	.	.	.
.	.	.	8B/J	.	.	.	.	.
4A\	4AA\	4A\	8c\L	8e/L	[2cc\	.	.	[2cc\
.	.	.	8d\	8f#/	.	.	.	.
4E\	4EE\	4E\	8e\	8g/	.	.	.	.
.	.	.	8c\J	8e/J	.	.	.	.
=217	=217	=217	=217	=217	=217	=217	=217	=217
4F#\	4FF#\	4F#\	4A/	8a/L	2cc\]	2dd\	2dd\	2cc\]
.	.	.	.	8cc/	.	.	.	.
4D\	4DD\	4D\	4f#\	8b/	.	.	.	.
.	.	.	.	8a/J	.	.	.	.
4E\	4EE\	4E\	4g\	8g/L	2b\	[2gg\	[2gg\	2b\
.	.	.	.	8a/	.	.	.	.
4BB/	4BBB/	4BB/	4d\	8b/	.	.	.	.
.	.	.	.	8g/J	.	.	.	.
=218	=218	=218	=218	=218	=218	=218	=218	=218
4C/	4CC/	4C/	4e\	8e/L	1a/	2gg\]	2gg\]	1a/
.	.	.	.	8c/	.	.	.	.
4AA/	4AAA/	4AA/	4c\	8d/	.	.	.	.
.	.	.	.	8e/J	.	.	.	.
4D/	4DD/	4D/	8A/L	8f#/L	.	2ff#\	2ff#\	.
.	.	.	8B/	8g/	.	.	.	.
4DD/	4DDD/	4DD/	8c/	8a/	.	.	.	.
.	.	.	8A/J	8f#/J	.	.	.	.
=219	=219	=219	=219	=219	=219	=219	=219	=219
[1GG/	[1GGG/	[1GG/	2B/	2d/	2g/	2gg\	4gg\	8g\L
.	.	.	.	.	.	.	.	8gg\
.	.	.	.	.	.	.	8dd\L	8dd\
.	.	.	.	.	.	.	8ee\J	8b\J
.	.	.	4r	4r	4r	[2b\	[2ff\	8g\L
.	.	.	.	.	.	.	.	8dd\
.	.	.	4g\	4b\	8dd\L	.	.	8b\
.	.	.	.	.	8ee\J	.	.	8g\J
=220	=220	=220	=220	=220	=220	=220	=220	=220
1GG/_	1GGG/_	1GG/_	2d\	2b\	2ff\	4b\]	4ff\]	8d/L
.	.	.	.	.	.	.	.	8g/
.	.	.	.	.	.	8b\L	8dd\L	8d/
.	.	.	.	.	.	8cc\J	8ee\J	8B/J
.	.	.	2r	2r	2r	4dd\	4ff\	2G/
.	.	.	.	.	.	8cc\L	8ee\L	.
.	.	.	.	.	.	8b\J	8dd\J	.
=221	=221	=221	=221	=221	=221	=221	=221	=221
1GG/_	1GGG/_	1GG/_	4r	4r	4r	2cc\	2ee\	8r
.	.	.	.	.	.	.	.	8ccc\L
.	.	.	8e\L	4g/	8cc\L	.	.	8gg\
.	.	.	8f\J	.	8dd\J	.	.	8ee\J
.	.	.	[2g\	[2cc\	[2ee\	4r	4r	8cc\L
.	.	.	.	.	.	.	.	8gg\
.	.	.	.	.	.	4g/	8cc\L	8ee\
.	.	.	.	.	.	.	8dd\J	8cc\J
=222	=222	=222	=222	=222	=222	=222	=222	=222
1GG/_	1GGG/_	1GG/_	4g\]	4cc\]	4ee\]	2cc\	2ee\	8g/L
.	.	.	.	.	.	.	.	8cc/
.	.	.	8e\L	8cc\L	8cc\L	.	.	8g/
.	.	.	8f\J	8b\J	8dd\J	.	.	8e/J
.	.	.	4g\	4cc\	4ee\	2r	2r	2c/
.	.	.	8f\L	8dd\L	8dd\L	.	.	.
.	.	.	8e\J	8ee\J	8cc\J	.	.	.
=223	=223	=223	=223	=223	=223	=223	=223	=223
1GG/_	1GGG/_	1GG/_	2cc\	2a/	2ff#\	4r	4r	8r
.	.	.	.	.	.	.	.	8ccc\L
.	.	.	.	.	.	8ff#\L	8aa\L	8aa\
.	.	.	.	.	.	8gg\J	8bb\J	8ff#\J
.	.	.	4r	4r	4r	[2aa\	[2ccc\	8dd\L
.	.	.	.	.	.	.	.	8aa\
.	.	.	4cc\	4ff#\	4aa\	.	.	8ff#\
.	.	.	.	.	.	.	.	8dd\J
=224	=224	=224	=224	=224	=224	=224	=224	=224
1GG/_	1GGG/_	1GG/_	4a\	4dd\	4ff#\	4aa\]	4ccc\]	8a/L
.	.	.	.	.	.	.	.	8dd/
.	.	.	4A/	4cc\	4aa\	8ff#\L	8aa\L	8a/
.	.	.	.	.	.	8gg\J	8bb\J	8f#/J
.	.	.	4d\	4a/	4ff#\	4aa\	4ccc\	2d/
.	.	.	4a\	4cc\	4dd\	8gg\L	8bb\L	.
.	.	.	.	.	.	8ff#\J	8aa\J	.
=225	=225	=225	=225	=225	=225	=225	=225	=225
8GG/L]	8GGG/L]	8GG/L]	[2g\	2.b\	4gg\	2gg\	2bb\	2dd\
8AA/	8AAA/	8AA/	.	.	.	.	.	.
8GG/	8GGG/	8GG/	.	.	4dd\	.	.	.
8FF#/J	8FFF#/J	8FF#/J	.	.	.	.	.	.
8EE/L	8EEE/L	8EE/L	8g\L]	.	[2gg\	2gg\	2gg\	[2gg\
8D/	8DD/	8D/	8f#\	.	.	.	.	.
8C/	8CC/	8C/	8e\	8cc\L	.	.	.	.
8BB/J	8BBB/J	8BB/J	8d\J	8dd\J	.	.	.	.
=226	=226	=226	=226	=226	=226	=226	=226	=226
8AA\L	8AAA\L	8AA\L	4c\	8ee\L	4gg\]	2.ccc\	2.ccc\	4gg\]
8B\	8BB\	8B\	.	8dd\	.	.	.	.
8A\	8AA\	8A\	4A/	8cc\	8ff#\L	.	.	8ff#\L
8G\J	8GG\J	8G\J	.	8ee\J	8gg\J	.	.	8gg\J
8F#\L	8FF#\L	8F#\L	[2d\	[2dd\	4aa\	.	.	4aa\
8e\	8E\	8e\	.	.	.	.	.	.
8d\	8D\	8d\	.	.	8gg\L	8bb\L	8bb\L	8gg\L
8c\J	8C\J	8c\J	.	.	8ff#\J	8ccc\J	8ccc\J	8ff#\J
=227	=227	=227	=227	=227	=227	=227	=227	=227
8B\L	8BB\L	8B\L	4d\]	4dd\]	4gg\	4ddd\	4ddd\	4gg\
8A\	8AA\	8A\	.	.	.	.	.	.
8G\	8GG\	8G\	4b\	4gg\	4dd\	8ccc\L	8ccc\L	4dd\
8F\J	8FF\J	8F\J	.	.	.	8bb\J	8bb\J	.
8E\L	8EE\L	8E\L	4g\	4cc\	4ee\	4ccc\	4ccc\	4ee\
8D\	8DD\	8D\	.	.	.	.	.	.
8C\	8CC\	8C\	4b\	4ee\	4b\	4gg\	4gg\	4b\
8BB\J	8BBB\J	8BB\J	.	.	.	.	.	.
=228	=228	=228	=228	=228	=228	=228	=228	=228
8AA/L	8AAA/L	8AA/L	4e\	4cc\	4cc\	4aa\	4aa\	4cc\
8G/	8GG/	8G/	.	.	.	.	.	.
8F#/	8FF#/	8F#/	4a\	4ee\	4a/	4ee\	4ee\	4a/
8E/J	8EE/J	8E/J	.	.	.	.	.	.
8D/L	8DD/L	8D/L	4f#\	4a/	4dd\	4ff#\	4ff#\	4dd\
8C/	8CC/	8C/	.	.	.	.	.	.
8BB/	8BBB/	8BB/	4a\	4dd\	4a/	4dd\	4dd\	4a/
8AA/J	8AAA/J	8AA/J	.	.	.	.	.	.
=229	=229	=229	=229	=229	=229	=229	=229	=229
2GG/	2GGG/	2GG/	2d\	2b\	2b\	2gg\	2gg\	2b\
2EE/	2EEE/	2EE/	2e\	2g/	2cc#\	2gg\	2gg\	2cc#\
=230	=230	=230	=230	=230	=230	=230	=230	=230
4r	4r	4r	4r	4r	4r	4r	4r	4r
4AA/	4AAA/	4AA/	4e\	4a/	8cc#\L	8ee\L	8ee\L	8cc#\L
.	.	.	.	.	8dd\J	8ff#\J	8ff#\J	8dd\J
4GG/	4GGG/	4GG/	4e\	4b\	4ee\	4gg\	4gg\	4ee\
4AA/	4AAA/	4AA/	4a\	4a/	8dd\L	8ff#\L	8ff#\L	8dd\L
.	.	.	.	.	8cc#\J	8ee\J	8ee\J	8cc#\J
=231	=231	=231	=231	=231	=231	=231	=231	=231
2DD/	2DDD/	2DD/	2f#\	2a/	2dd\	2ff#\	2ff#\	2dd\
2GG/	2GGG/	2GG/	2d\	2g/	2b\	2ff\	2ff\	2b\
=232	=232	=232	=232	=232	=232	=232	=232	=232
4r	4r	4r	4r	4r	4r	4r	4r	4r
4GG/	4GG\	4GG/	4d\	4g/	8b\L	8dd\L	8dd\L	8b\L
.	.	.	.	.	8cc\J	8ee\J	8ee\J	8cc\J
4FF/	4FF\	4FF/	4d\	4a/	4dd\	4ff\	4ff\	4dd\
4GG/	4GG\	4GG/	4g\	4g/	8cc\L	8ee\L	8ee\L	8cc\L
.	.	.	.	.	8b\J	8dd\J	8dd\J	8b\J
=233	=233	=233	=233	=233	=233	=233	=233	=233
2CC/	2CC/	2CC/	2e\	2g/	2cc\	2ee\	2ee\	2cc\
2B\	2BBB/	2B\	2f\	2b\	2gg#\	2ddd\	2ddd\	2gg#\
=234	=234	=234	=234	=234	=234	=234	=234	=234
4r	4r	4r	4r	4r	4r	4r	4r	4r
4E\	4EE\	4E\	4e\	4b\	8gg#\L	8bb\L	8bb\L	8gg#\L
.	.	.	.	.	8aa\J	8ccc\J	8ccc\J	8aa\J
4D\	4DD\	4D\	4f\	4b\	4bb\	4ddd\	4ddd\	4bb\
4E\	4EE\	4E\	4e\	4ee\	8aa\L	8ccc\L	8ccc\L	8aa\L
.	.	.	.	.	8gg#\J	8bb\J	8bb\J	8gg#\J
=235	=235	=235	=235	=235	=235	=235	=235	=235
4AA/	4AAA/	4AA/	4e\	4ee\	4aa\	4ccc\	4ccc\	4aa\
4D\	4DD\	4D\	4f#\	4dd\	8ff#\L	8aa\L	8aa\L	8ff#\L
.	.	.	.	.	8gg\J	8bb\J	8bb\J	8gg\J
4C/	4CC/	4C/	4e\	4ee\	4aa\	4ccc\	4ccc\	4aa\
4D\	4DD\	4D\	4f#\	4dd\	8gg\L	8bb\L	8bb\L	8gg\L
.	.	.	.	.	8ff#\J	8aa\J	8aa\J	8ff#\J
=236	=236	=236	=236	=236	=236	=236	=236	=236
4GG/	4GGG/	4GG/	4d\	4dd\	8gg\L	4bb\	4bb\	8gg\L
.	.	.	.	.	8ff\	.	.	8ff\
8C/L	8CC/L	8C/L	8e\L	4g/	8ee\	8ccc\L	8ccc\L	8ee\
8D/J	8DD/J	8D/J	8f#\J	.	8dd\J	8bb\J	8bb\J	8dd\J
4E\	4EE\	4E\	4g\	8cc\L	8cc\L	8aa\L	8aa\L	8cc\L
.	.	.	.	8b\J	8dd\	8bb\	8bb\	8dd\
4C/	4CC/	4C/	4e\	[4cc\	8ee\	8aa\	8aa\	8ee\
.	.	.	.	.	8cc\J	8gg\J	8gg\J	8cc\J
=237	=237	=237	=237	=237	=237	=237	=237	=237
2D\	2DD\	2D\	4a\	8cc\L]	4a/	8ff#\L	8ff#\L	4a/
.	.	.	.	8b\	.	8gg\	8gg\	.
.	.	.	4f#\	8cc\	[4dd\	8aa\	8aa\	[4dd\
.	.	.	.	8a\J	.	8ff#\J	8ff#\J	.
[2G\	[2GG\	[2G\	4g\	8b\L	8dd\L]	2dd\	2dd\	8dd\L]
.	.	.	.	8gg\	8cc\	.	.	8cc\
.	.	.	4b\	8ff#\	8dd\	.	.	8dd\
.	.	.	.	8gg\J	8b\J	.	.	8b\J
=238	=238	=238	=238	=238	=238	=238	=238	=238
4G\]	4GG\]	4G\]	4e\	2a/	8cc\L	1r	1r	8cc\L
.	.	.	.	.	8b\	.	.	8b\
8F#\L	8FF#\L	8F#\L	4a\	.	8a\	.	.	8a\
8G\J	8GG\J	8G\J	.	.	8b\J	.	.	8b\J
4A\	4AA\	4A\	4f#\	[2aa\	8cc\L	.	.	8cc\L
.	.	.	.	.	8b\	.	.	8b\
8G\L	8GG\L	8G\L	4a\	.	8cc\	.	.	8cc\
8F#\J	8FF#\J	8F#\J	.	.	8a\J	.	.	8a\J
=239	=239	=239	=239	=239	=239	=239	=239	=239
4G\	4GG\	4G\	4d\	8aa\L]	2b\	2dd\	2dd\	2b\
.	.	.	.	8gg\	.	.	.	.
4D\	4DD\	4D\	4B/	8aa\	.	.	.	.
.	.	.	.	8ff#\J	.	.	.	.
4E\	4EE\	4E\	4e\	8gg\L	4r	[2gg\	[2gg\	4r
.	.	.	.	8ff#\	.	.	.	.
4BB/	4BBB/	4BB/	4d\	8gg\	4gg\	.	.	4gg\
.	.	.	.	8dd\J	.	.	.	.
=240	=240	=240	=240	=240	=240	=240	=240	=240
4C/	4CC/	4C/	[2c\	8ee\L	8aa\L	4gg\]	4gg\]	8aa\L
.	.	.	.	8dd\	8bb\	.	.	8bb\
4AA/	4AAA/	4AA/	.	8cc\	8aa\	8ff#\L	8ff#\L	8aa\
.	.	.	.	8b\J	8bb\J	8gg\J	8gg\J	8bb\J
4D/	4DD/	4D/	8c\L]	8a/L	8ccc\L	4aa\	4aa\	8ccc\L
.	.	.	8f#\	8b/J	8ddd\	.	.	8ddd\
4AA/	4AAA/	4AA/	8g\	4cc\	8bb\	8gg\L	8gg\L	8bb\
.	.	.	8a\J	.	8ccc\J	8ff#\J	8ff#\J	8ccc\J
=241	=241	=241	=241	=241	=241	=241	=241	=241
4BB/	4BBB/	4BB/	4d\	8b\L	4ddd\	4gg\	4gg\	4ddd\
.	.	.	.	8cc\	.	.	.	.
4B\	4BB\	4B\	4b\	8dd\	4ff#\	4dd\	4dd\	4ff#\
.	.	.	.	8cc\J	.	.	.	.
4G\	4GG\	4G\	4e\	8b/L	[2gg\	4ee\	4ee\	[2gg\
.	.	.	.	8a/	.	.	.	.
4E\	4EE\	4E\	4g\	8g/	.	4b\	4b\	.
.	.	.	.	8f#/J	.	.	.	.
=242	=242	=242	=242	=242	=242	=242	=242	=242
4AA/	4AAA/	4AA/	4a\	8e/L	8gg\L]	4cc\	4cc\	8gg\L]
.	.	.	.	8dd/	8aa\	.	.	8aa\
4A\	4AA\	4A\	4e\	8cc/	8ff#\	4a/	4a/	8ff#\
.	.	.	.	8b/J	8gg\J	.	.	8gg\J
4F#\	4FF#\	4F#\	4f#\	8a\L	8aa\L	4dd\	4dd\	8aa\L
.	.	.	.	8b\	8gg\	.	.	8gg\
4D\	4DD\	4D\	4a\	8cc\	8aa\	4a/	4a/	8aa\
.	.	.	.	8dd\J	8ff#\J	.	.	8ff#\J
=243	=243	=243	=243	=243	=243	=243	=243	=243
4G\	4GG\	4G\	4.d\	4.b\	4.gg\	4.b\	4.b\	4.gg\
4C/	4CC/	4C/	.	.	.	.	.	.
.	.	.	8e\	8a/	8aa\	8cc\	8cc\	8aa\
4D/	4DD/	4D/	4.d\	4.aT/	4.ff#t\	4.aT/	4.aT/	4.ff#t\
4DD/	4DDD/	4DD/	.	.	.	.	.	.
.	.	.	8d\	8b\	8gg\	8g/	8g/	8gg\
=244	=244	=244	=244	=244	=244	=244	=244	=244
1GG;/	1GGG;/	1GG;/	1d;\	1b;\	1gg;\	1g;/	1g;/	1gg;\
==	==	==	==	==	==	==	==	==
*-	*-	*-	*-	*-	*-	*-	*-	*-
!!!CDT: 1685/3//-1750/7/28
!!!OCY: Deutschland
!!!ODE: His Royal Highness Christian Ludwig, Margrave of Brandenburg.
!!!ODT: ~1720//
!!!OPC: ?Coethen; ?Cothen; ?Co2then
!!!PPR: Peters
!!!PDT: 1850
!!!PPP: Leipzig
!!!AGN: concerto grosso
!!!AST: baroque, orchestral
!!!AMT: simple duple
!!!SCA: Bach-Werke-Verzeichnis
!!!YOR: Bach Gesellschaft, xix,85
!!!YOY: 1871; although imprint says 1869
!!!AIN: cbass; cemba; cello; fltdn; viola; violn
!!!EEV: 1.0
!!!RDT: 1994 March 12
!!!YER: 1994 October 22
!!!YEN: United States of America
!!!EFL: 3/3
!!!EED: W.B. Hewlett
!!!VTS: 62159033
